M201 X500.00 Y500.00 Z100.00 E5000.00 ;Setup machine max acceleration
M203 X500.00 Y500.00 Z10.00 E50.00 ;Setup machine max feedrate
M204 P500.00 R1000.00 T500.00 ;Setup Print/Retract/Travel acceleration
M205 X8.00 Y8.00 Z0.40 E5.00 ;Setup Jerk
M220 S100 ;Reset Feedrate
M221 S100 ;Reset Flowrate

G28 ;Home
G29 ;Auto-bed leveling

G90 ;Absolute positioning
G0 X0 Y150 Z0.25
M0 Insert pen and click

G92 E0 ;Reset Extruder
G1 Z2.0 F3000 ;Move Z Axis up
M75

G0 X46.19999999999999 Y47.0
G0 Z0
G0 Z2
G0 X46.79999999999998 Y47.0
G0 Z0
G0 Z2
G0 X62.69999999999999 Y51.099999999999994
G0 Z0
G0 X62.69999999999999 Y51.19999999999999
G0 X62.69999999999999 Y51.30000000000001
G0 X62.69999999999999 Y51.400000000000006
G0 X62.69999999999999 Y51.5
G0 X62.599999999999994 Y51.599999999999994
G0 X62.599999999999994 Y51.69999999999999
G0 X62.599999999999994 Y51.80000000000001
G0 X62.599999999999994 Y51.900000000000006
G0 X62.599999999999994 Y52.0
G0 X62.599999999999994 Y52.099999999999994
G0 X62.599999999999994 Y52.19999999999999
G0 X62.599999999999994 Y52.30000000000001
G0 X62.599999999999994 Y52.400000000000006
G0 X62.599999999999994 Y52.5
G0 X62.599999999999994 Y52.599999999999994
G0 X62.599999999999994 Y52.69999999999999
G0 X62.599999999999994 Y52.80000000000001
G0 X62.599999999999994 Y52.900000000000006
G0 X62.599999999999994 Y53.0
G0 X62.69999999999999 Y53.099999999999994
G0 X62.79999999999998 Y53.0
G0 X62.79999999999998 Y52.900000000000006
G0 X62.79999999999998 Y52.80000000000001
G0 X62.79999999999998 Y52.69999999999999
G0 X62.79999999999998 Y52.599999999999994
G0 X62.79999999999998 Y52.5
G0 X62.79999999999998 Y52.400000000000006
G0 X62.79999999999998 Y52.30000000000001
G0 X62.79999999999998 Y52.19999999999999
G0 X62.79999999999998 Y52.099999999999994
G0 X62.79999999999998 Y52.0
G0 X62.79999999999998 Y51.900000000000006
G0 X62.79999999999998 Y51.80000000000001
G0 X62.79999999999998 Y51.69999999999999
G0 X62.79999999999998 Y51.599999999999994
G0 X62.900000000000006 Y51.5
G0 X62.900000000000006 Y51.400000000000006
G0 X62.900000000000006 Y51.30000000000001
G0 X63.0 Y51.19999999999999
G0 X62.900000000000006 Y51.099999999999994
G0 X62.79999999999998 Y51.0
G0 X63.0 Y51.0
G0 X63.0 Y50.900000000000006
G0 X63.0 Y50.80000000000001
G0 X63.0 Y50.69999999999999
G0 X63.099999999999994 Y50.599999999999994
G0 X63.0 Y50.5
G0 X63.099999999999994 Y50.400000000000006
G0 X63.099999999999994 Y50.30000000000001
G0 X63.099999999999994 Y50.19999999999999
G0 X63.19999999999999 Y50.099999999999994
G0 X63.19999999999999 Y50.0
G0 X63.19999999999999 Y49.900000000000006
G0 X63.19999999999999 Y49.80000000000001
G0 X63.29999999999998 Y49.69999999999999
G0 X63.19999999999999 Y49.599999999999994
G0 X63.29999999999998 Y49.5
G0 X63.400000000000006 Y49.5
G0 X63.400000000000006 Y49.400000000000006
G0 X63.400000000000006 Y49.30000000000001
G0 X63.400000000000006 Y49.19999999999999
G0 X63.400000000000006 Y49.099999999999994
G0 X63.5 Y49.0
G0 X63.5 Y48.900000000000006
G0 X63.400000000000006 Y48.80000000000001
G0 X63.400000000000006 Y48.69999999999999
G0 X63.5 Y48.599999999999994
G0 X63.599999999999994 Y48.599999999999994
G0 X63.599999999999994 Y48.5
G0 X63.599999999999994 Y48.400000000000006
G0 X63.599999999999994 Y48.30000000000001
G0 X63.69999999999999 Y48.19999999999999
G0 X63.599999999999994 Y48.099999999999994
G0 X63.69999999999999 Y48.0
G0 X63.69999999999999 Y47.900000000000006
G0 X63.69999999999999 Y47.80000000000001
G0 X63.79999999999998 Y47.69999999999999
G0 X63.79999999999998 Y47.599999999999994
G0 X63.79999999999998 Y47.5
G0 X63.69999999999999 Y47.400000000000006
G0 X63.69999999999999 Y47.30000000000001
G0 X63.79999999999998 Y47.19999999999999
G0 X63.79999999999998 Y47.099999999999994
G0 X63.79999999999998 Y47.0
G0 X64.0 Y47.0
G0 X64.0 Y47.099999999999994
G0 X64.0 Y47.19999999999999
G0 X63.900000000000006 Y47.30000000000001
G0 X63.900000000000006 Y47.400000000000006
G0 X64.0 Y47.5
G0 X64.0 Y47.599999999999994
G0 X64.0 Y47.69999999999999
G0 X63.900000000000006 Y47.80000000000001
G0 X63.900000000000006 Y47.900000000000006
G0 X63.900000000000006 Y48.0
G0 X63.79999999999998 Y48.099999999999994
G0 X63.900000000000006 Y48.19999999999999
G0 X63.79999999999998 Y48.30000000000001
G0 X63.79999999999998 Y48.400000000000006
G0 X63.900000000000006 Y48.5
G0 X63.79999999999998 Y48.599999999999994
G0 X63.69999999999999 Y48.69999999999999
G0 X63.599999999999994 Y48.80000000000001
G0 X63.69999999999999 Y48.900000000000006
G0 X63.69999999999999 Y49.0
G0 X63.599999999999994 Y49.099999999999994
G0 X63.599999999999994 Y49.19999999999999
G0 X63.599999999999994 Y49.30000000000001
G0 X63.599999999999994 Y49.400000000000006
G0 X63.599999999999994 Y49.5
G0 X63.599999999999994 Y49.599999999999994
G0 X63.5 Y49.69999999999999
G0 X63.400000000000006 Y49.80000000000001
G0 X63.400000000000006 Y49.900000000000006
G0 X63.400000000000006 Y50.0
G0 X63.400000000000006 Y50.099999999999994
G0 X63.29999999999998 Y50.19999999999999
G0 X63.29999999999998 Y50.30000000000001
G0 X63.29999999999998 Y50.400000000000006
G0 X63.29999999999998 Y50.5
G0 X63.19999999999999 Y50.5
G0 X63.400000000000006 Y50.599999999999994
G0 X63.29999999999998 Y50.69999999999999
G0 X63.19999999999999 Y50.80000000000001
G0 X63.19999999999999 Y50.900000000000006
G0 X63.19999999999999 Y51.0
G0 X63.099999999999994 Y51.099999999999994
G0 Z2
G0 X59.79999999999998 Y61.80000000000001
G0 Z0
G0 X59.69999999999999 Y61.900000000000006
G0 X59.69999999999999 Y62.0
G0 X59.69999999999999 Y62.099999999999994
G0 X59.69999999999999 Y62.19999999999999
G0 X59.69999999999999 Y62.30000000000001
G0 X59.69999999999999 Y62.400000000000006
G0 X59.69999999999999 Y62.5
G0 X59.69999999999999 Y62.599999999999994
G0 X59.69999999999999 Y62.69999999999999
G0 X59.69999999999999 Y62.80000000000001
G0 X59.69999999999999 Y62.900000000000006
G0 X59.69999999999999 Y63.0
G0 X59.69999999999999 Y63.099999999999994
G0 X59.599999999999994 Y63.19999999999999
G0 X59.599999999999994 Y63.30000000000001
G0 X59.5 Y63.30000000000001
G0 X59.5 Y63.400000000000006
G0 X59.599999999999994 Y63.400000000000006
G0 X59.599999999999994 Y63.5
G0 X59.5 Y63.5
G0 X59.5 Y63.599999999999994
G0 X59.599999999999994 Y63.599999999999994
G0 X59.599999999999994 Y63.69999999999999
G0 X59.5 Y63.69999999999999
G0 X59.5 Y63.80000000000001
G0 X59.5 Y63.900000000000006
G0 X59.5 Y64.0
G0 X59.5 Y64.1
G0 X59.400000000000006 Y64.19999999999999
G0 X59.400000000000006 Y64.30000000000001
G0 X59.400000000000006 Y64.4
G0 X59.400000000000006 Y64.5
G0 X59.29999999999998 Y64.6
G0 X59.29999999999998 Y64.69999999999999
G0 X59.29999999999998 Y64.80000000000001
G0 X59.29999999999998 Y64.9
G0 X59.29999999999998 Y65.0
G0 X59.19999999999999 Y65.1
G0 X59.19999999999999 Y65.19999999999999
G0 X59.099999999999994 Y65.30000000000001
G0 X59.099999999999994 Y65.4
G0 X59.099999999999994 Y65.5
G0 X59.19999999999999 Y65.5
G0 X59.29999999999998 Y65.6
G0 X59.19999999999999 Y65.69999999999999
G0 X59.099999999999994 Y65.69999999999999
G0 X59.099999999999994 Y65.80000000000001
G0 X59.099999999999994 Y65.9
G0 X59.0 Y66.0
G0 X59.0 Y66.1
G0 X58.900000000000006 Y66.19999999999999
G0 X58.900000000000006 Y66.30000000000001
G0 X58.900000000000006 Y66.4
G0 X58.900000000000006 Y66.5
G0 X58.900000000000006 Y66.6
G0 X58.79999999999998 Y66.69999999999999
G0 X58.69999999999999 Y66.80000000000001
G0 X58.69999999999999 Y66.9
G0 X58.69999999999999 Y67.0
G0 X58.69999999999999 Y67.1
G0 X58.69999999999999 Y67.19999999999999
G0 X58.69999999999999 Y67.30000000000001
G0 X58.69999999999999 Y67.4
G0 X58.69999999999999 Y67.5
G0 X58.599999999999994 Y67.6
G0 X58.5 Y67.6
G0 X58.400000000000006 Y67.6
G0 X58.400000000000006 Y67.69999999999999
G0 X58.29999999999998 Y67.80000000000001
G0 X58.29999999999998 Y67.9
G0 X58.19999999999999 Y68.0
G0 X58.099999999999994 Y68.1
G0 X58.0 Y68.19999999999999
G0 X58.0 Y68.30000000000001
G0 X58.0 Y68.4
G0 X58.0 Y68.5
G0 X58.0 Y68.6
G0 X58.0 Y68.69999999999999
G0 X58.0 Y68.80000000000001
G0 X58.0 Y68.9
G0 X57.900000000000006 Y69.0
G0 X57.900000000000006 Y69.1
G0 X57.900000000000006 Y69.19999999999999
G0 X57.79999999999998 Y69.30000000000001
G0 X57.79999999999998 Y69.4
G0 X57.79999999999998 Y69.5
G0 X57.79999999999998 Y69.6
G0 X57.69999999999999 Y69.69999999999999
G0 X57.599999999999994 Y69.80000000000001
G0 X57.69999999999999 Y69.9
G0 X57.79999999999998 Y69.80000000000001
G0 X57.900000000000006 Y69.69999999999999
G0 X58.0 Y69.6
G0 X58.0 Y69.5
G0 X58.0 Y69.4
G0 X58.0 Y69.30000000000001
G0 Z2
G0 X57.69999999999999 Y69.19999999999999
G0 Z0
G0 X57.69999999999999 Y69.1
G0 X57.69999999999999 Y69.0
G0 X57.79999999999998 Y68.9
G0 X57.79999999999998 Y68.80000000000001
G0 X57.79999999999998 Y68.69999999999999
G0 X57.79999999999998 Y68.6
G0 X57.79999999999998 Y68.5
G0 X57.79999999999998 Y68.4
G0 X57.79999999999998 Y68.30000000000001
G0 X57.79999999999998 Y68.19999999999999
G0 X57.900000000000006 Y68.1
G0 X57.900000000000006 Y68.0
G0 X58.0 Y67.9
G0 X58.099999999999994 Y67.80000000000001
G0 X58.099999999999994 Y67.69999999999999
G0 X58.19999999999999 Y67.6
G0 X58.19999999999999 Y67.5
G0 X58.29999999999998 Y67.4
G0 X58.400000000000006 Y67.4
G0 X58.5 Y67.4
G0 X58.5 Y67.30000000000001
G0 X58.5 Y67.19999999999999
G0 X58.5 Y67.1
G0 X58.5 Y67.0
G0 X58.5 Y66.9
G0 X58.5 Y66.80000000000001
G0 X58.599999999999994 Y66.69999999999999
G0 X58.599999999999994 Y66.6
G0 X58.69999999999999 Y66.5
G0 X58.69999999999999 Y66.4
G0 X58.69999999999999 Y66.30000000000001
G0 X58.69999999999999 Y66.19999999999999
G0 X58.79999999999998 Y66.1
G0 X58.79999999999998 Y66.0
G0 X58.900000000000006 Y65.9
G0 X58.900000000000006 Y65.80000000000001
G0 X58.900000000000006 Y65.69999999999999
G0 X58.900000000000006 Y65.6
G0 X58.900000000000006 Y65.5
G0 X58.900000000000006 Y65.4
G0 X58.900000000000006 Y65.30000000000001
G0 X59.0 Y65.19999999999999
G0 X59.0 Y65.1
G0 X59.099999999999994 Y65.0
G0 X59.099999999999994 Y64.9
G0 X59.099999999999994 Y64.80000000000001
G0 X59.099999999999994 Y64.69999999999999
G0 X59.099999999999994 Y64.6
G0 X59.19999999999999 Y64.5
G0 X59.19999999999999 Y64.4
G0 X59.19999999999999 Y64.30000000000001
G0 X59.099999999999994 Y64.19999999999999
G0 X59.19999999999999 Y64.1
G0 X59.29999999999998 Y64.0
G0 X59.29999999999998 Y63.900000000000006
G0 X59.29999999999998 Y63.80000000000001
G0 X59.29999999999998 Y63.69999999999999
G0 X59.29999999999998 Y63.599999999999994
G0 X59.29999999999998 Y63.5
G0 X59.29999999999998 Y63.400000000000006
G0 X59.29999999999998 Y63.30000000000001
G0 X59.400000000000006 Y63.19999999999999
G0 Z2
G0 X59.79999999999998 Y63.19999999999999
G0 Z0
G0 X59.79999999999998 Y63.30000000000001
G0 X59.79999999999998 Y63.400000000000006
G0 X59.79999999999998 Y63.5
G0 X59.79999999999998 Y63.599999999999994
G0 X59.79999999999998 Y63.69999999999999
G0 X59.69999999999999 Y63.80000000000001
G0 Z2
G0 X59.900000000000006 Y63.099999999999994
G0 Z0
G0 X59.900000000000006 Y63.0
G0 X59.900000000000006 Y62.900000000000006
G0 X59.900000000000006 Y62.80000000000001
G0 X59.900000000000006 Y62.69999999999999
G0 X59.900000000000006 Y62.599999999999994
G0 X59.900000000000006 Y62.5
G0 X59.900000000000006 Y62.400000000000006
G0 X59.900000000000006 Y62.30000000000001
G0 X59.900000000000006 Y62.19999999999999
G0 X59.900000000000006 Y62.099999999999994
G0 X59.900000000000006 Y62.0
G0 X59.900000000000006 Y61.900000000000006
G0 Z2
G0 X58.29999999999998 Y63.599999999999994
G0 Z0
G0 X58.19999999999999 Y63.69999999999999
G0 X58.19999999999999 Y63.80000000000001
G0 X58.19999999999999 Y63.900000000000006
G0 X58.19999999999999 Y64.0
G0 X58.19999999999999 Y64.1
G0 X58.19999999999999 Y64.19999999999999
G0 X58.19999999999999 Y64.30000000000001
G0 X58.19999999999999 Y64.4
G0 X58.19999999999999 Y64.5
G0 X58.19999999999999 Y64.6
G0 X58.19999999999999 Y64.69999999999999
G0 X58.19999999999999 Y64.80000000000001
G0 X58.19999999999999 Y64.9
G0 X58.099999999999994 Y65.0
G0 X58.099999999999994 Y65.1
G0 X58.099999999999994 Y65.19999999999999
G0 X58.099999999999994 Y65.30000000000001
G0 X58.099999999999994 Y65.4
G0 X58.099999999999994 Y65.5
G0 X58.099999999999994 Y65.6
G0 X58.099999999999994 Y65.69999999999999
G0 X58.099999999999994 Y65.80000000000001
G0 X58.19999999999999 Y65.9
G0 X58.29999999999998 Y65.80000000000001
G0 X58.29999999999998 Y65.69999999999999
G0 X58.29999999999998 Y65.6
G0 X58.29999999999998 Y65.5
G0 X58.29999999999998 Y65.4
G0 X58.29999999999998 Y65.30000000000001
G0 X58.29999999999998 Y65.19999999999999
G0 X58.29999999999998 Y65.1
G0 X58.29999999999998 Y65.0
G0 X58.400000000000006 Y64.9
G0 X58.400000000000006 Y64.80000000000001
G0 X58.400000000000006 Y64.69999999999999
G0 X58.400000000000006 Y64.6
G0 X58.400000000000006 Y64.5
G0 X58.400000000000006 Y64.4
G0 X58.400000000000006 Y64.30000000000001
G0 X58.400000000000006 Y64.19999999999999
G0 X58.400000000000006 Y64.1
G0 X58.400000000000006 Y64.0
G0 X58.400000000000006 Y63.900000000000006
G0 X58.400000000000006 Y63.80000000000001
G0 X58.400000000000006 Y63.69999999999999
G0 Z2
G0 X58.0 Y69.80000000000001
G0 Z0
G0 X57.900000000000006 Y69.9
G0 X57.79999999999998 Y70.0
G0 X57.79999999999998 Y70.1
G0 X57.79999999999998 Y70.19999999999999
G0 X57.69999999999999 Y70.30000000000001
G0 X57.69999999999999 Y70.4
G0 X57.69999999999999 Y70.5
G0 X57.69999999999999 Y70.6
G0 X57.69999999999999 Y70.69999999999999
G0 X57.599999999999994 Y70.80000000000001
G0 X57.599999999999994 Y70.9
G0 X57.599999999999994 Y71.0
G0 X57.5 Y71.1
G0 X57.5 Y71.19999999999999
G0 X57.400000000000006 Y71.30000000000001
G0 X57.400000000000006 Y71.4
G0 X57.400000000000006 Y71.5
G0 X57.400000000000006 Y71.6
G0 X57.400000000000006 Y71.69999999999999
G0 X57.29999999999998 Y71.80000000000001
G0 X57.29999999999998 Y71.9
G0 X57.29999999999998 Y72.0
G0 X57.29999999999998 Y72.1
G0 X57.29999999999998 Y72.19999999999999
G0 X57.29999999999998 Y72.30000000000001
G0 X57.19999999999999 Y72.4
G0 X57.19999999999999 Y72.5
G0 X57.19999999999999 Y72.6
G0 X57.19999999999999 Y72.69999999999999
G0 X57.19999999999999 Y72.80000000000001
G0 X57.19999999999999 Y72.9
G0 X57.19999999999999 Y73.0
G0 X57.099999999999994 Y73.1
G0 X57.0 Y73.0
G0 X57.0 Y72.9
G0 X57.0 Y72.80000000000001
G0 X57.0 Y72.69999999999999
G0 X57.0 Y72.6
G0 X57.0 Y72.5
G0 X57.0 Y72.4
G0 X57.099999999999994 Y72.30000000000001
G0 X57.099999999999994 Y72.19999999999999
G0 X57.099999999999994 Y72.1
G0 X57.099999999999994 Y72.0
G0 X57.099999999999994 Y71.9
G0 X57.099999999999994 Y71.80000000000001
G0 X57.099999999999994 Y71.69999999999999
G0 X57.19999999999999 Y71.6
G0 X57.19999999999999 Y71.5
G0 X57.19999999999999 Y71.4
G0 X57.19999999999999 Y71.30000000000001
G0 X57.29999999999998 Y71.19999999999999
G0 X57.29999999999998 Y71.1
G0 X57.400000000000006 Y71.0
G0 X57.400000000000006 Y70.9
G0 X57.400000000000006 Y70.80000000000001
G0 X57.5 Y70.69999999999999
G0 X57.5 Y70.6
G0 X57.5 Y70.5
G0 X57.5 Y70.4
G0 X57.5 Y70.30000000000001
G0 X57.599999999999994 Y70.19999999999999
G0 X57.599999999999994 Y70.1
G0 X57.599999999999994 Y70.0
G0 Z2
G0 X56.5 Y70.80000000000001
G0 Z0
G0 X56.5 Y70.9
G0 X56.5 Y71.0
G0 X56.5 Y71.1
G0 X56.5 Y71.19999999999999
G0 X56.5 Y71.30000000000001
G0 X56.5 Y71.4
G0 X56.5 Y71.5
G0 X56.5 Y71.6
G0 X56.400000000000006 Y71.69999999999999
G0 X56.400000000000006 Y71.80000000000001
G0 X56.400000000000006 Y71.9
G0 X56.29999999999998 Y72.0
G0 X56.29999999999998 Y72.1
G0 X56.29999999999998 Y72.19999999999999
G0 X56.29999999999998 Y72.30000000000001
G0 X56.19999999999999 Y72.4
G0 X56.19999999999999 Y72.5
G0 X56.099999999999994 Y72.6
G0 X56.099999999999994 Y72.69999999999999
G0 X56.099999999999994 Y72.80000000000001
G0 X56.099999999999994 Y72.9
G0 X56.099999999999994 Y73.0
G0 X56.0 Y73.1
G0 X56.0 Y73.19999999999999
G0 X56.0 Y73.30000000000001
G0 X55.900000000000006 Y73.4
G0 X55.900000000000006 Y73.5
G0 X55.900000000000006 Y73.6
G0 X55.79999999999998 Y73.69999999999999
G0 X55.69999999999999 Y73.69999999999999
G0 X55.69999999999999 Y73.6
G0 X55.69999999999999 Y73.5
G0 X55.69999999999999 Y73.4
G0 X55.79999999999998 Y73.30000000000001
G0 X55.79999999999998 Y73.19999999999999
G0 X55.79999999999998 Y73.1
G0 X55.900000000000006 Y73.0
G0 X55.900000000000006 Y72.9
G0 X55.900000000000006 Y72.80000000000001
G0 X55.900000000000006 Y72.69999999999999
G0 X55.900000000000006 Y72.6
G0 X56.0 Y72.5
G0 X56.0 Y72.4
G0 X56.099999999999994 Y72.30000000000001
G0 X56.099999999999994 Y72.19999999999999
G0 X56.099999999999994 Y72.1
G0 X56.099999999999994 Y72.0
G0 X56.19999999999999 Y71.9
G0 X56.19999999999999 Y71.80000000000001
G0 X56.099999999999994 Y71.69999999999999
G0 X56.19999999999999 Y71.6
G0 X56.29999999999998 Y71.5
G0 X56.29999999999998 Y71.4
G0 X56.29999999999998 Y71.30000000000001
G0 X56.29999999999998 Y71.19999999999999
G0 X56.29999999999998 Y71.1
G0 X56.29999999999998 Y71.0
G0 X56.29999999999998 Y70.9
G0 X56.29999999999998 Y70.80000000000001
G0 X56.400000000000006 Y70.69999999999999
G0 Z2
G0 X56.79999999999998 Y72.6
G0 Z0
G0 X56.69999999999999 Y72.69999999999999
G0 X56.69999999999999 Y72.80000000000001
G0 X56.69999999999999 Y72.9
G0 X56.69999999999999 Y73.0
G0 X56.69999999999999 Y73.1
G0 X56.69999999999999 Y73.19999999999999
G0 X56.69999999999999 Y73.30000000000001
G0 X56.69999999999999 Y73.4
G0 X56.69999999999999 Y73.5
G0 X56.69999999999999 Y73.6
G0 X56.69999999999999 Y73.69999999999999
G0 X56.69999999999999 Y73.80000000000001
G0 X56.599999999999994 Y73.9
G0 X56.599999999999994 Y74.0
G0 X56.5 Y74.0
G0 X56.400000000000006 Y74.0
G0 X56.29999999999998 Y74.1
G0 X56.19999999999999 Y74.19999999999999
G0 X56.099999999999994 Y74.1
G0 X56.0 Y74.0
G0 X55.900000000000006 Y74.0
G0 X55.900000000000006 Y73.9
G0 X55.79999999999998 Y73.80000000000001
G0 X55.69999999999999 Y73.9
G0 X55.599999999999994 Y73.80000000000001
G0 X55.5 Y73.69999999999999
G0 X55.599999999999994 Y73.6
G0 Z2
G0 X55.599999999999994 Y74.0
G0 Z0
G0 X55.69999999999999 Y74.1
G0 X55.79999999999998 Y74.19999999999999
G0 X55.900000000000006 Y74.19999999999999
G0 X56.0 Y74.30000000000001
G0 X56.099999999999994 Y74.30000000000001
G0 X56.19999999999999 Y74.4
G0 X56.29999999999998 Y74.30000000000001
G0 X56.400000000000006 Y74.30000000000001
G0 X56.5 Y74.19999999999999
G0 X56.599999999999994 Y74.19999999999999
G0 X56.69999999999999 Y74.1
G0 X56.79999999999998 Y74.0
G0 X56.79999999999998 Y73.9
G0 X56.900000000000006 Y73.80000000000001
G0 X56.900000000000006 Y73.69999999999999
G0 X56.900000000000006 Y73.6
G0 X56.900000000000006 Y73.5
G0 X56.900000000000006 Y73.4
G0 X56.900000000000006 Y73.30000000000001
G0 X56.900000000000006 Y73.19999999999999
G0 X56.900000000000006 Y73.1
G0 X56.900000000000006 Y73.0
G0 X56.900000000000006 Y72.9
G0 X56.900000000000006 Y72.80000000000001
G0 X56.900000000000006 Y72.69999999999999
G0 Z2
G0 X55.599999999999994 Y76.80000000000001
G0 Z0
G0 X55.5 Y76.80000000000001
G0 X55.400000000000006 Y76.80000000000001
G0 X55.29999999999998 Y76.69999999999999
G0 X55.19999999999999 Y76.80000000000001
G0 X55.099999999999994 Y76.80000000000001
G0 X55.0 Y76.80000000000001
G0 X54.900000000000006 Y76.80000000000001
G0 X54.79999999999998 Y76.9
G0 X54.69999999999999 Y77.0
G0 X54.599999999999994 Y77.1
G0 X54.599999999999994 Y77.19999999999999
G0 X54.599999999999994 Y77.30000000000001
G0 X54.599999999999994 Y77.4
G0 X54.599999999999994 Y77.5
G0 X54.69999999999999 Y77.6
G0 X54.79999999999998 Y77.5
G0 X54.79999999999998 Y77.4
G0 X54.79999999999998 Y77.30000000000001
G0 X54.79999999999998 Y77.19999999999999
G0 X54.79999999999998 Y77.1
G0 X54.900000000000006 Y77.0
G0 X55.0 Y77.0
G0 X55.099999999999994 Y77.0
G0 X55.19999999999999 Y77.0
G0 X55.29999999999998 Y76.9
G0 X55.400000000000006 Y77.0
G0 X55.5 Y77.0
G0 X55.599999999999994 Y77.1
G0 X55.599999999999994 Y77.19999999999999
G0 X55.599999999999994 Y77.30000000000001
G0 X55.599999999999994 Y77.4
G0 X55.599999999999994 Y77.5
G0 X55.5 Y77.6
G0 X55.5 Y77.69999999999999
G0 X55.5 Y77.80000000000001
G0 X55.400000000000006 Y77.9
G0 X55.29999999999998 Y77.9
G0 X55.19999999999999 Y78.0
G0 X55.099999999999994 Y78.1
G0 X55.0 Y78.0
G0 X54.900000000000006 Y77.9
G0 X54.79999999999998 Y78.0
G0 X54.900000000000006 Y78.1
G0 X55.0 Y78.19999999999999
G0 X55.099999999999994 Y78.30000000000001
G0 X55.19999999999999 Y78.19999999999999
G0 X55.29999999999998 Y78.19999999999999
G0 X55.400000000000006 Y78.1
G0 X55.5 Y78.1
G0 X55.599999999999994 Y78.0
G0 X55.69999999999999 Y77.9
G0 X55.69999999999999 Y77.80000000000001
G0 X55.69999999999999 Y77.69999999999999
G0 X55.69999999999999 Y77.6
G0 X55.79999999999998 Y77.5
G0 X55.79999999999998 Y77.4
G0 X55.79999999999998 Y77.30000000000001
G0 X55.79999999999998 Y77.19999999999999
G0 X55.79999999999998 Y77.1
G0 X55.79999999999998 Y77.0
G0 X55.69999999999999 Y76.9
G0 Z2
G0 X54.400000000000006 Y80.9
G0 Z0
G0 X54.29999999999998 Y80.9
G0 X54.19999999999999 Y80.9
G0 X54.099999999999994 Y80.9
G0 X54.0 Y80.9
G0 X53.900000000000006 Y80.9
G0 X53.79999999999998 Y80.9
G0 X53.69999999999999 Y81.0
G0 X53.69999999999999 Y81.1
G0 X53.69999999999999 Y81.19999999999999
G0 X53.69999999999999 Y81.30000000000001
G0 X53.69999999999999 Y81.4
G0 X53.69999999999999 Y81.5
G0 X53.69999999999999 Y81.6
G0 X53.599999999999994 Y81.69999999999999
G0 X53.599999999999994 Y81.80000000000001
G0 X53.599999999999994 Y81.9
G0 X53.5 Y82.0
G0 X53.5 Y82.1
G0 X53.5 Y82.19999999999999
G0 X53.5 Y82.30000000000001
G0 X53.5 Y82.4
G0 X53.5 Y82.5
G0 X53.400000000000006 Y82.6
G0 X53.29999999999998 Y82.5
G0 X53.29999999999998 Y82.4
G0 X53.29999999999998 Y82.30000000000001
G0 X53.29999999999998 Y82.19999999999999
G0 X53.29999999999998 Y82.1
G0 X53.29999999999998 Y82.0
G0 X53.400000000000006 Y81.9
G0 Z2
G0 X53.69999999999999 Y82.0
G0 Z0
G0 X53.79999999999998 Y81.9
G0 X53.79999999999998 Y81.80000000000001
G0 X53.79999999999998 Y81.69999999999999
G0 X53.900000000000006 Y81.6
G0 X53.900000000000006 Y81.5
G0 X53.900000000000006 Y81.4
G0 X53.900000000000006 Y81.30000000000001
G0 X53.900000000000006 Y81.19999999999999
G0 X53.900000000000006 Y81.1
G0 X54.0 Y81.1
G0 X54.099999999999994 Y81.1
G0 X54.19999999999999 Y81.1
G0 X54.29999999999998 Y81.1
G0 X54.400000000000006 Y81.19999999999999
G0 X54.400000000000006 Y81.30000000000001
G0 X54.400000000000006 Y81.4
G0 X54.5 Y81.5
G0 X54.5 Y81.6
G0 X54.599999999999994 Y81.6
G0 X54.599999999999994 Y81.69999999999999
G0 X54.5 Y81.80000000000001
G0 X54.5 Y81.9
G0 X54.400000000000006 Y82.0
G0 X54.29999999999998 Y81.9
G0 X54.29999999999998 Y81.80000000000001
G0 X54.400000000000006 Y81.69999999999999
G0 Z2
G0 X54.69999999999999 Y81.80000000000001
G0 Z0
G0 X54.79999999999998 Y81.69999999999999
G0 X54.79999999999998 Y81.6
G0 X54.69999999999999 Y81.5
G0 X54.599999999999994 Y81.4
G0 X54.599999999999994 Y81.30000000000001
G0 X54.599999999999994 Y81.19999999999999
G0 X54.5 Y81.1
G0 X54.5 Y81.0
G0 Z2
G0 X54.599999999999994 Y82.0
G0 Z0
G0 X54.5 Y82.1
G0 X54.5 Y82.19999999999999
G0 X54.5 Y82.30000000000001
G0 X54.400000000000006 Y82.4
G0 X54.400000000000006 Y82.5
G0 X54.400000000000006 Y82.6
G0 X54.400000000000006 Y82.69999999999999
G0 X54.400000000000006 Y82.80000000000001
G0 X54.29999999999998 Y82.9
G0 X54.29999999999998 Y83.0
G0 X54.29999999999998 Y83.1
G0 X54.29999999999998 Y83.19999999999999
G0 X54.29999999999998 Y83.30000000000001
G0 X54.19999999999999 Y83.4
G0 X54.19999999999999 Y83.5
G0 X54.19999999999999 Y83.6
G0 X54.099999999999994 Y83.69999999999999
G0 X54.0 Y83.69999999999999
G0 X54.0 Y83.6
G0 X54.0 Y83.5
G0 X54.0 Y83.4
G0 X53.900000000000006 Y83.30000000000001
G0 X53.79999999999998 Y83.4
G0 X53.69999999999999 Y83.5
G0 X53.69999999999999 Y83.6
G0 X53.79999999999998 Y83.69999999999999
G0 X53.79999999999998 Y83.80000000000001
G0 X53.79999999999998 Y83.9
G0 X53.69999999999999 Y84.0
G0 X53.69999999999999 Y84.1
G0 X53.69999999999999 Y84.19999999999999
G0 X53.69999999999999 Y84.30000000000001
G0 X53.69999999999999 Y84.4
G0 X53.69999999999999 Y84.5
G0 X53.69999999999999 Y84.6
G0 X53.69999999999999 Y84.69999999999999
G0 X53.599999999999994 Y84.80000000000001
G0 X53.5 Y84.80000000000001
G0 X53.400000000000006 Y84.9
G0 X53.29999999999998 Y85.0
G0 X53.29999999999998 Y85.1
G0 X53.29999999999998 Y85.19999999999999
G0 X53.400000000000006 Y85.30000000000001
G0 X53.5 Y85.19999999999999
G0 X53.5 Y85.1
G0 X53.5 Y85.0
G0 X53.599999999999994 Y85.0
G0 X53.599999999999994 Y84.9
G0 X53.79999999999998 Y84.9
G0 X53.79999999999998 Y84.80000000000001
G0 X53.900000000000006 Y84.69999999999999
G0 X53.900000000000006 Y84.6
G0 X53.900000000000006 Y84.5
G0 X53.900000000000006 Y84.4
G0 X53.900000000000006 Y84.30000000000001
G0 X53.900000000000006 Y84.19999999999999
G0 X53.900000000000006 Y84.1
G0 X53.900000000000006 Y84.0
G0 X54.0 Y83.9
G0 X54.0 Y83.80000000000001
G0 X53.900000000000006 Y83.6
G0 X53.900000000000006 Y83.5
G0 X54.099999999999994 Y83.30000000000001
G0 X54.099999999999994 Y83.19999999999999
G0 X54.099999999999994 Y83.1
G0 X54.099999999999994 Y83.0
G0 X54.099999999999994 Y82.9
G0 X54.19999999999999 Y82.80000000000001
G0 X54.19999999999999 Y82.69999999999999
G0 X54.19999999999999 Y82.6
G0 X54.19999999999999 Y82.5
G0 X54.19999999999999 Y82.4
G0 X54.29999999999998 Y82.30000000000001
G0 X54.29999999999998 Y82.19999999999999
G0 X54.29999999999998 Y82.1
G0 Z2
G0 X53.29999999999998 Y82.69999999999999
G0 Z0
G0 X53.29999999999998 Y82.80000000000001
G0 X53.29999999999998 Y82.9
G0 X53.29999999999998 Y83.0
G0 X53.19999999999999 Y83.1
G0 X53.19999999999999 Y83.19999999999999
G0 X53.19999999999999 Y83.30000000000001
G0 X53.19999999999999 Y83.4
G0 X53.099999999999994 Y83.4
G0 X53.099999999999994 Y83.5
G0 X52.900000000000006 Y83.5
G0 X52.900000000000006 Y83.4
G0 X53.0 Y83.30000000000001
G0 X53.0 Y83.19999999999999
G0 X53.0 Y83.1
G0 X53.099999999999994 Y83.0
G0 X53.099999999999994 Y82.9
G0 X53.099999999999994 Y82.80000000000001
G0 X53.099999999999994 Y82.69999999999999
G0 X53.19999999999999 Y82.6
G0 Z2
G0 X53.29999999999998 Y83.5
G0 Z0
G0 X53.29999999999998 Y83.6
G0 X53.19999999999999 Y83.69999999999999
G0 X53.099999999999994 Y83.69999999999999
G0 X53.099999999999994 Y83.80000000000001
G0 X53.099999999999994 Y83.9
G0 X53.099999999999994 Y84.0
G0 X53.099999999999994 Y84.1
G0 X53.099999999999994 Y84.19999999999999
G0 X53.0 Y84.30000000000001
G0 X52.900000000000006 Y84.19999999999999
G0 X52.900000000000006 Y84.1
G0 X52.900000000000006 Y84.0
G0 X52.900000000000006 Y83.9
G0 X52.900000000000006 Y83.80000000000001
G0 X52.900000000000006 Y83.69999999999999
G0 X52.900000000000006 Y83.6
G0 Z2
G0 X52.79999999999998 Y84.30000000000001
G0 Z0
G0 X52.69999999999999 Y84.4
G0 X52.69999999999999 Y84.5
G0 X52.69999999999999 Y84.6
G0 X52.599999999999994 Y84.69999999999999
G0 X52.69999999999999 Y84.80000000000001
G0 X52.69999999999999 Y84.9
G0 X52.599999999999994 Y85.0
G0 X52.599999999999994 Y85.1
G0 X52.599999999999994 Y85.19999999999999
G0 X52.599999999999994 Y85.30000000000001
G0 X52.5 Y85.4
G0 X52.5 Y85.5
G0 X52.5 Y85.6
G0 X52.400000000000006 Y85.6
G0 X52.400000000000006 Y85.69999999999999
G0 X52.5 Y85.69999999999999
G0 X52.400000000000006 Y85.80000000000001
G0 X52.400000000000006 Y85.9
G0 X52.400000000000006 Y86.0
G0 X52.400000000000006 Y86.1
G0 X52.400000000000006 Y86.19999999999999
G0 X52.400000000000006 Y86.30000000000001
G0 X52.400000000000006 Y86.4
G0 X52.400000000000006 Y86.5
G0 X52.400000000000006 Y86.6
G0 X52.29999999999998 Y86.69999999999999
G0 X52.29999999999998 Y86.80000000000001
G0 X52.29999999999998 Y86.9
G0 X52.19999999999999 Y87.0
G0 X52.19999999999999 Y87.1
G0 X52.099999999999994 Y87.19999999999999
G0 X52.099999999999994 Y87.30000000000001
G0 X52.099999999999994 Y87.4
G0 X52.0 Y87.5
G0 X52.0 Y87.6
G0 X52.0 Y87.69999999999999
G0 X52.0 Y87.80000000000001
G0 X52.0 Y87.9
G0 X52.0 Y88.0
G0 X52.0 Y88.1
G0 X51.900000000000006 Y88.19999999999999
G0 X51.79999999999998 Y88.30000000000001
G0 X51.79999999999998 Y88.4
G0 X51.79999999999998 Y88.5
G0 X51.79999999999998 Y88.6
G0 X51.79999999999998 Y88.69999999999999
G0 X51.69999999999999 Y88.80000000000001
G0 X51.599999999999994 Y88.69999999999999
G0 X51.599999999999994 Y88.6
G0 X51.599999999999994 Y88.5
G0 X51.599999999999994 Y88.4
G0 X51.599999999999994 Y88.30000000000001
G0 X51.69999999999999 Y88.19999999999999
G0 X51.69999999999999 Y88.1
G0 X51.79999999999998 Y88.0
G0 X51.79999999999998 Y87.9
G0 X51.79999999999998 Y87.80000000000001
G0 X51.79999999999998 Y87.69999999999999
G0 X51.79999999999998 Y87.6
G0 X51.79999999999998 Y87.5
G0 X51.900000000000006 Y87.4
G0 X51.900000000000006 Y87.30000000000001
G0 X51.900000000000006 Y87.19999999999999
G0 X52.0 Y87.1
G0 X52.0 Y87.0
G0 X52.099999999999994 Y86.9
G0 X52.099999999999994 Y86.80000000000001
G0 X52.099999999999994 Y86.69999999999999
G0 X52.099999999999994 Y86.6
G0 X52.19999999999999 Y86.5
G0 X52.19999999999999 Y86.4
G0 X52.19999999999999 Y86.30000000000001
G0 X52.19999999999999 Y86.19999999999999
G0 X52.19999999999999 Y86.1
G0 X52.19999999999999 Y86.0
G0 X52.19999999999999 Y85.9
G0 X52.19999999999999 Y85.80000000000001
G0 X52.19999999999999 Y85.69999999999999
G0 X52.19999999999999 Y85.6
G0 X52.29999999999998 Y85.5
G0 Z2
G0 X52.69999999999999 Y85.5
G0 Z0
G0 X52.69999999999999 Y85.4
G0 X52.79999999999998 Y85.30000000000001
G0 X52.79999999999998 Y85.19999999999999
G0 X52.79999999999998 Y85.1
G0 X52.79999999999998 Y85.0
G0 X52.900000000000006 Y84.9
G0 X52.900000000000006 Y84.80000000000001
G0 X52.79999999999998 Y84.69999999999999
G0 X52.900000000000006 Y84.6
G0 X52.900000000000006 Y84.5
G0 X52.900000000000006 Y84.4
G0 Z2
G0 X53.599999999999994 Y85.1
G0 Z0
G0 X53.69999999999999 Y85.19999999999999
G0 X53.79999999999998 Y85.1
G0 X53.79999999999998 Y85.0
G0 Z2
G0 X53.599999999999994 Y85.30000000000001
G0 Z0
G0 X53.5 Y85.4
G0 X53.5 Y85.5
G0 X53.5 Y85.6
G0 X53.5 Y85.69999999999999
G0 X53.5 Y85.80000000000001
G0 X53.5 Y85.9
G0 X53.5 Y86.0
G0 X53.400000000000006 Y86.1
G0 X53.400000000000006 Y86.19999999999999
G0 X53.400000000000006 Y86.30000000000001
G0 X53.400000000000006 Y86.4
G0 X53.29999999999998 Y86.4
G0 X53.29999999999998 Y86.5
G0 X53.400000000000006 Y86.6
G0 X53.5 Y86.5
G0 X53.29999999999998 Y86.69999999999999
G0 X53.19999999999999 Y86.80000000000001
G0 X53.19999999999999 Y86.9
G0 X53.099999999999994 Y87.0
G0 X53.099999999999994 Y87.1
G0 X53.099999999999994 Y87.19999999999999
G0 X53.099999999999994 Y87.30000000000001
G0 X53.099999999999994 Y87.4
G0 X53.099999999999994 Y87.5
G0 X53.0 Y87.6
G0 X53.0 Y87.69999999999999
G0 X52.900000000000006 Y87.80000000000001
G0 X52.900000000000006 Y87.9
G0 X52.900000000000006 Y88.0
G0 X52.79999999999998 Y88.1
G0 X52.79999999999998 Y88.19999999999999
G0 X52.79999999999998 Y88.30000000000001
G0 X52.79999999999998 Y88.4
G0 X52.79999999999998 Y88.5
G0 X52.79999999999998 Y88.6
G0 X52.79999999999998 Y88.69999999999999
G0 X52.79999999999998 Y88.80000000000001
G0 X52.69999999999999 Y88.9
G0 X52.69999999999999 Y89.0
G0 X52.69999999999999 Y89.1
G0 X52.69999999999999 Y89.19999999999999
G0 X52.599999999999994 Y89.30000000000001
G0 X52.5 Y89.30000000000001
G0 X52.400000000000006 Y89.30000000000001
G0 X52.400000000000006 Y89.4
G0 X52.5 Y89.4
G0 X52.599999999999994 Y89.4
G0 X52.69999999999999 Y89.5
G0 X52.599999999999994 Y89.6
G0 X52.5 Y89.6
G0 X52.400000000000006 Y89.6
G0 X52.29999999999998 Y89.69999999999999
G0 X52.19999999999999 Y89.69999999999999
G0 X52.099999999999994 Y89.69999999999999
G0 X52.0 Y89.69999999999999
G0 X51.900000000000006 Y89.69999999999999
G0 X51.79999999999998 Y89.69999999999999
G0 X51.69999999999999 Y89.69999999999999
G0 X51.599999999999994 Y89.69999999999999
G0 X51.5 Y89.80000000000001
G0 X51.400000000000006 Y89.69999999999999
G0 X51.400000000000006 Y89.6
G0 X51.400000000000006 Y89.5
G0 X51.400000000000006 Y89.4
G0 X51.400000000000006 Y89.30000000000001
G0 X51.400000000000006 Y89.19999999999999
G0 X51.400000000000006 Y89.1
G0 X51.400000000000006 Y89.0
G0 X51.400000000000006 Y88.9
G0 X51.5 Y88.80000000000001
G0 X51.599999999999994 Y88.9
G0 X51.599999999999994 Y89.0
G0 X51.599999999999994 Y89.1
G0 X51.599999999999994 Y89.19999999999999
G0 X51.599999999999994 Y89.30000000000001
G0 X51.599999999999994 Y89.4
G0 X51.599999999999994 Y89.5
G0 X51.69999999999999 Y89.5
G0 X51.79999999999998 Y89.5
G0 X51.900000000000006 Y89.5
G0 X52.0 Y89.5
G0 X52.099999999999994 Y89.5
G0 X52.19999999999999 Y89.5
G0 X52.19999999999999 Y89.4
G0 X52.19999999999999 Y89.30000000000001
G0 X52.19999999999999 Y89.19999999999999
G0 X52.29999999999998 Y89.1
G0 X52.400000000000006 Y89.1
G0 X52.5 Y89.1
G0 X52.5 Y89.0
G0 X52.5 Y88.9
G0 X52.599999999999994 Y88.80000000000001
G0 X52.599999999999994 Y88.69999999999999
G0 X52.599999999999994 Y88.6
G0 X52.599999999999994 Y88.5
G0 X52.599999999999994 Y88.4
G0 X52.599999999999994 Y88.30000000000001
G0 X52.599999999999994 Y88.19999999999999
G0 X52.599999999999994 Y88.1
G0 X52.69999999999999 Y88.0
G0 X52.69999999999999 Y87.9
G0 X52.69999999999999 Y87.80000000000001
G0 X52.79999999999998 Y87.69999999999999
G0 X52.79999999999998 Y87.6
G0 X52.900000000000006 Y87.5
G0 X52.900000000000006 Y87.4
G0 X52.900000000000006 Y87.30000000000001
G0 X52.900000000000006 Y87.19999999999999
G0 X52.900000000000006 Y87.1
G0 X52.900000000000006 Y87.0
G0 X53.0 Y86.9
G0 X53.0 Y86.80000000000001
G0 X53.099999999999994 Y86.69999999999999
G0 X53.0 Y86.6
G0 X53.099999999999994 Y86.5
G0 X53.099999999999994 Y86.4
G0 X53.19999999999999 Y86.30000000000001
G0 X53.19999999999999 Y86.19999999999999
G0 X53.19999999999999 Y86.1
G0 X53.29999999999998 Y86.0
G0 X53.29999999999998 Y85.9
G0 X53.29999999999998 Y85.80000000000001
G0 X53.29999999999998 Y85.69999999999999
G0 X53.29999999999998 Y85.6
G0 X53.29999999999998 Y85.5
G0 X53.29999999999998 Y85.4
G0 Z2
G0 X52.69999999999999 Y85.6
G0 Z0
G0 X52.69999999999999 Y85.69999999999999
G0 X52.599999999999994 Y85.80000000000001
G0 Z2
G0 X47.900000000000006 Y85.19999999999999
G0 Z0
G0 X47.900000000000006 Y85.1
G0 X47.79999999999998 Y85.0
G0 X47.79999999999998 Y84.9
G0 X47.69999999999999 Y84.9
G0 X47.69999999999999 Y84.80000000000001
G0 X47.69999999999999 Y84.69999999999999
G0 X47.69999999999999 Y84.6
G0 X47.69999999999999 Y84.5
G0 X47.69999999999999 Y84.4
G0 X47.69999999999999 Y84.30000000000001
G0 X47.69999999999999 Y84.19999999999999
G0 X47.69999999999999 Y84.1
G0 X47.69999999999999 Y84.0
G0 X47.79999999999998 Y83.9
G0 X47.900000000000006 Y83.80000000000001
G0 X47.900000000000006 Y83.69999999999999
G0 X48.0 Y83.6
G0 X48.0 Y83.5
G0 X48.0 Y83.4
G0 X48.0 Y83.30000000000001
G0 X48.099999999999994 Y83.19999999999999
G0 X48.099999999999994 Y83.1
G0 X48.099999999999994 Y83.0
G0 X48.099999999999994 Y82.9
G0 X48.099999999999994 Y82.80000000000001
G0 X48.099999999999994 Y82.69999999999999
G0 X48.099999999999994 Y82.6
G0 X48.19999999999999 Y82.5
G0 X48.19999999999999 Y82.4
G0 X48.099999999999994 Y82.30000000000001
G0 X48.19999999999999 Y82.19999999999999
G0 X48.29999999999998 Y82.1
G0 X48.29999999999998 Y82.0
G0 X48.400000000000006 Y81.9
G0 X48.400000000000006 Y81.80000000000001
G0 X48.400000000000006 Y81.69999999999999
G0 X48.400000000000006 Y81.6
G0 X48.5 Y81.5
G0 X48.5 Y81.4
G0 X48.5 Y81.30000000000001
G0 X48.599999999999994 Y81.19999999999999
G0 X48.69999999999999 Y81.1
G0 X48.69999999999999 Y81.0
G0 X48.69999999999999 Y80.9
G0 X48.79999999999998 Y80.9
G0 X48.79999999999998 Y80.80000000000001
G0 X48.79999999999998 Y80.69999999999999
G0 X48.900000000000006 Y80.69999999999999
G0 X48.900000000000006 Y80.80000000000001
G0 X49.0 Y80.9
G0 X48.900000000000006 Y81.0
G0 X48.900000000000006 Y81.1
G0 X48.79999999999998 Y81.19999999999999
G0 X48.69999999999999 Y81.30000000000001
G0 X48.69999999999999 Y81.4
G0 X48.69999999999999 Y81.5
G0 X48.599999999999994 Y81.6
G0 X48.599999999999994 Y81.69999999999999
G0 X48.599999999999994 Y81.80000000000001
G0 X48.599999999999994 Y81.9
G0 X48.5 Y82.0
G0 X48.5 Y82.1
G0 X48.400000000000006 Y82.19999999999999
G0 X48.29999999999998 Y82.30000000000001
G0 X48.400000000000006 Y82.4
G0 X48.400000000000006 Y82.5
G0 X48.29999999999998 Y82.6
G0 X48.29999999999998 Y82.69999999999999
G0 X48.29999999999998 Y82.80000000000001
G0 X48.29999999999998 Y82.9
G0 X48.29999999999998 Y83.0
G0 X48.29999999999998 Y83.1
G0 X48.29999999999998 Y83.19999999999999
G0 X48.19999999999999 Y83.30000000000001
G0 X48.19999999999999 Y83.4
G0 X48.19999999999999 Y83.5
G0 X48.19999999999999 Y83.6
G0 X48.099999999999994 Y83.69999999999999
G0 X48.099999999999994 Y83.80000000000001
G0 X48.0 Y83.9
G0 X47.900000000000006 Y84.0
G0 X47.900000000000006 Y84.1
G0 X47.900000000000006 Y84.19999999999999
G0 X47.900000000000006 Y84.30000000000001
G0 X47.900000000000006 Y84.4
G0 X47.900000000000006 Y84.5
G0 X47.900000000000006 Y84.6
G0 X47.900000000000006 Y84.69999999999999
G0 X47.900000000000006 Y84.80000000000001
G0 Z2
G0 X47.599999999999994 Y84.80000000000001
G0 Z0
G0 X47.5 Y84.80000000000001
G0 X47.400000000000006 Y84.9
G0 X47.29999999999998 Y85.0
G0 X47.29999999999998 Y85.1
G0 X47.29999999999998 Y85.19999999999999
G0 X47.29999999999998 Y85.30000000000001
G0 X47.29999999999998 Y85.4
G0 X47.29999999999998 Y85.5
G0 X47.29999999999998 Y85.6
G0 X47.29999999999998 Y85.69999999999999
G0 X47.29999999999998 Y85.80000000000001
G0 X47.29999999999998 Y85.9
G0 X47.29999999999998 Y86.0
G0 X47.400000000000006 Y86.0
G0 X47.400000000000006 Y86.1
G0 X47.400000000000006 Y86.19999999999999
G0 X47.29999999999998 Y86.30000000000001
G0 X47.19999999999999 Y86.30000000000001
G0 X47.099999999999994 Y86.19999999999999
G0 X47.0 Y86.1
G0 X46.900000000000006 Y86.1
G0 X46.79999999999998 Y86.1
G0 X46.79999999999998 Y86.0
G0 X46.79999999999998 Y85.9
G0 X46.69999999999999 Y85.80000000000001
G0 X46.69999999999999 Y85.69999999999999
G0 X46.599999999999994 Y85.6
G0 X46.5 Y85.69999999999999
G0 X46.400000000000006 Y85.69999999999999
G0 X46.400000000000006 Y85.6
G0 X46.400000000000006 Y85.5
G0 X46.400000000000006 Y85.4
G0 X46.400000000000006 Y85.30000000000001
G0 X46.400000000000006 Y85.19999999999999
G0 X46.400000000000006 Y85.1
G0 X46.400000000000006 Y85.0
G0 X46.29999999999998 Y84.9
G0 X46.19999999999999 Y84.80000000000001
G0 X46.099999999999994 Y84.80000000000001
G0 X46.099999999999994 Y84.69999999999999
G0 X46.099999999999994 Y84.6
G0 X46.099999999999994 Y84.5
G0 X46.0 Y84.4
G0 X46.0 Y84.30000000000001
G0 X46.0 Y84.19999999999999
G0 X46.0 Y84.1
G0 X46.0 Y84.0
G0 X46.0 Y83.9
G0 X46.0 Y83.80000000000001
G0 X46.0 Y83.69999999999999
G0 X46.0 Y83.6
G0 X45.900000000000006 Y83.5
G0 X45.79999999999998 Y83.5
G0 X45.69999999999999 Y83.5
G0 X45.599999999999994 Y83.5
G0 X45.599999999999994 Y83.69999999999999
G0 X45.69999999999999 Y83.69999999999999
G0 X45.79999999999998 Y83.69999999999999
G0 X45.79999999999998 Y83.80000000000001
G0 X45.69999999999999 Y83.9
G0 X45.79999999999998 Y84.0
G0 X45.79999999999998 Y84.1
G0 X45.79999999999998 Y84.19999999999999
G0 X45.79999999999998 Y84.30000000000001
G0 X45.79999999999998 Y84.4
G0 X45.79999999999998 Y84.5
G0 X45.900000000000006 Y84.6
G0 X45.900000000000006 Y84.69999999999999
G0 X45.900000000000006 Y84.80000000000001
G0 X45.900000000000006 Y84.9
G0 X46.0 Y85.0
G0 X46.099999999999994 Y84.9
G0 X46.19999999999999 Y85.0
G0 X46.19999999999999 Y85.1
G0 X46.19999999999999 Y85.19999999999999
G0 X46.19999999999999 Y85.30000000000001
G0 X46.19999999999999 Y85.4
G0 X46.19999999999999 Y85.5
G0 X46.19999999999999 Y85.6
G0 X46.19999999999999 Y85.69999999999999
G0 X46.19999999999999 Y85.80000000000001
G0 X46.19999999999999 Y85.9
G0 X46.29999999999998 Y86.0
G0 X46.400000000000006 Y86.1
G0 X46.5 Y86.0
G0 X46.5 Y85.9
G0 X46.5 Y85.80000000000001
G0 X46.400000000000006 Y85.80000000000001
G0 X46.599999999999994 Y86.0
G0 X46.599999999999994 Y86.1
G0 X46.69999999999999 Y86.19999999999999
G0 X46.79999999999998 Y86.30000000000001
G0 X46.900000000000006 Y86.30000000000001
G0 X47.0 Y86.30000000000001
G0 X47.19999999999999 Y86.1
G0 X47.099999999999994 Y86.0
G0 Z2
G0 X47.5 Y85.9
G0 Z0
G0 X47.5 Y85.80000000000001
G0 X47.5 Y85.69999999999999
G0 X47.5 Y85.6
G0 X47.5 Y85.5
G0 X47.5 Y85.4
G0 X47.5 Y85.30000000000001
G0 X47.5 Y85.19999999999999
G0 X47.5 Y85.1
G0 X47.599999999999994 Y85.0
G0 X47.69999999999999 Y85.1
G0 X47.69999999999999 Y85.19999999999999
G0 X47.599999999999994 Y85.30000000000001
G0 X47.69999999999999 Y85.4
G0 X47.79999999999998 Y85.30000000000001
G0 Z2
G0 X48.599999999999994 Y80.80000000000001
G0 Z0
G0 X48.599999999999994 Y80.69999999999999
G0 X48.599999999999994 Y80.6
G0 X48.69999999999999 Y80.5
G0 X48.79999999999998 Y80.4
G0 X48.79999999999998 Y80.30000000000001
G0 X48.79999999999998 Y80.19999999999999
G0 X48.79999999999998 Y80.1
G0 X48.79999999999998 Y80.0
G0 X48.79999999999998 Y79.9
G0 X48.79999999999998 Y79.80000000000001
G0 X48.79999999999998 Y79.69999999999999
G0 X48.69999999999999 Y79.6
G0 X48.599999999999994 Y79.6
G0 X48.5 Y79.5
G0 X48.5 Y79.4
G0 X48.599999999999994 Y79.30000000000001
G0 X48.599999999999994 Y79.19999999999999
G0 X48.5 Y79.1
G0 X48.400000000000006 Y79.0
G0 X48.5 Y78.9
G0 X48.5 Y78.80000000000001
G0 X48.5 Y78.69999999999999
G0 X48.400000000000006 Y78.6
G0 X48.400000000000006 Y78.5
G0 X48.400000000000006 Y78.4
G0 X48.400000000000006 Y78.30000000000001
G0 X48.400000000000006 Y78.19999999999999
G0 X48.400000000000006 Y78.1
G0 X48.5 Y78.0
G0 X48.5 Y77.9
G0 X48.599999999999994 Y77.80000000000001
G0 X48.599999999999994 Y77.69999999999999
G0 X48.5 Y77.6
G0 X48.599999999999994 Y77.5
G0 X48.599999999999994 Y77.4
G0 X48.599999999999994 Y77.30000000000001
G0 X48.599999999999994 Y77.19999999999999
G0 X48.69999999999999 Y77.1
G0 X48.69999999999999 Y77.0
G0 X48.69999999999999 Y76.9
G0 X48.79999999999998 Y76.80000000000001
G0 X48.79999999999998 Y76.69999999999999
G0 X48.79999999999998 Y76.6
G0 X48.79999999999998 Y76.5
G0 X48.900000000000006 Y76.4
G0 X49.0 Y76.4
G0 X49.099999999999994 Y76.4
G0 X49.19999999999999 Y76.4
G0 X49.29999999999998 Y76.4
G0 X49.400000000000006 Y76.4
G0 X49.5 Y76.4
G0 X49.599999999999994 Y76.5
G0 X49.5 Y76.6
G0 X49.400000000000006 Y76.6
G0 X49.29999999999998 Y76.6
G0 X49.19999999999999 Y76.6
G0 X49.099999999999994 Y76.6
G0 X49.0 Y76.6
G0 X49.0 Y76.69999999999999
G0 X49.0 Y76.80000000000001
G0 X48.900000000000006 Y76.9
G0 X48.900000000000006 Y77.0
G0 X48.900000000000006 Y77.1
G0 X48.79999999999998 Y77.19999999999999
G0 X48.79999999999998 Y77.30000000000001
G0 X48.79999999999998 Y77.4
G0 X48.79999999999998 Y77.5
G0 X48.69999999999999 Y77.6
G0 X48.79999999999998 Y77.69999999999999
G0 X48.79999999999998 Y77.80000000000001
G0 X48.69999999999999 Y77.9
G0 X48.69999999999999 Y78.0
G0 X48.599999999999994 Y78.1
G0 X48.599999999999994 Y78.19999999999999
G0 X48.599999999999994 Y78.30000000000001
G0 X48.599999999999994 Y78.4
G0 X48.599999999999994 Y78.5
G0 X48.599999999999994 Y78.6
G0 X48.69999999999999 Y78.69999999999999
G0 X48.69999999999999 Y78.80000000000001
G0 X48.69999999999999 Y78.9
G0 X48.599999999999994 Y79.0
G0 X48.69999999999999 Y79.1
G0 X48.79999999999998 Y79.19999999999999
G0 X48.79999999999998 Y79.30000000000001
G0 X48.69999999999999 Y79.4
G0 X48.79999999999998 Y79.5
G0 X48.900000000000006 Y79.6
G0 X49.0 Y79.69999999999999
G0 X49.0 Y79.80000000000001
G0 X49.0 Y79.9
G0 X49.0 Y80.0
G0 X49.0 Y80.1
G0 X49.0 Y80.19999999999999
G0 X49.0 Y80.30000000000001
G0 X49.0 Y80.4
G0 X48.900000000000006 Y80.5
G0 X49.0 Y80.6
G0 Z2
G0 X49.29999999999998 Y80.1
G0 Z0
G0 X49.19999999999999 Y80.0
G0 X49.19999999999999 Y79.9
G0 X49.19999999999999 Y79.80000000000001
G0 X49.19999999999999 Y79.69999999999999
G0 X49.099999999999994 Y79.6
G0 X49.19999999999999 Y79.5
G0 X49.29999999999998 Y79.6
G0 X49.400000000000006 Y79.69999999999999
G0 X49.400000000000006 Y79.80000000000001
G0 X49.400000000000006 Y79.9
G0 X49.400000000000006 Y80.0
G0 Z2
G0 X46.69999999999999 Y78.30000000000001
G0 Z0
G0 X46.69999999999999 Y78.19999999999999
G0 X46.69999999999999 Y78.1
G0 X46.69999999999999 Y78.0
G0 X46.69999999999999 Y77.9
G0 X46.69999999999999 Y77.80000000000001
G0 X46.599999999999994 Y77.69999999999999
G0 X46.599999999999994 Y77.6
G0 X46.599999999999994 Y77.5
G0 X46.599999999999994 Y77.4
G0 X46.599999999999994 Y77.30000000000001
G0 X46.599999999999994 Y77.19999999999999
G0 X46.599999999999994 Y77.1
G0 X46.599999999999994 Y77.0
G0 X46.599999999999994 Y76.9
G0 X46.69999999999999 Y76.80000000000001
G0 X46.79999999999998 Y76.69999999999999
G0 X46.79999999999998 Y76.6
G0 X46.69999999999999 Y76.5
G0 X46.599999999999994 Y76.4
G0 X46.599999999999994 Y76.30000000000001
G0 X46.69999999999999 Y76.19999999999999
G0 X46.69999999999999 Y76.1
G0 X46.79999999999998 Y76.0
G0 X46.900000000000006 Y76.0
G0 X47.0 Y75.9
G0 X47.0 Y75.80000000000001
G0 X47.099999999999994 Y75.69999999999999
G0 X47.099999999999994 Y75.6
G0 X47.0 Y75.5
G0 X47.099999999999994 Y75.4
G0 X47.099999999999994 Y75.30000000000001
G0 X47.19999999999999 Y75.19999999999999
G0 X47.29999999999998 Y75.1
G0 X47.29999999999998 Y75.0
G0 X47.29999999999998 Y74.9
G0 X47.29999999999998 Y74.80000000000001
G0 X47.29999999999998 Y74.69999999999999
G0 X47.29999999999998 Y74.6
G0 X47.29999999999998 Y74.5
G0 X47.29999999999998 Y74.4
G0 X47.400000000000006 Y74.30000000000001
G0 X47.5 Y74.19999999999999
G0 X47.599999999999994 Y74.30000000000001
G0 X47.69999999999999 Y74.30000000000001
G0 X47.69999999999999 Y74.19999999999999
G0 X47.69999999999999 Y74.1
G0 X47.69999999999999 Y74.0
G0 X47.69999999999999 Y73.9
G0 X47.69999999999999 Y73.80000000000001
G0 X47.69999999999999 Y73.69999999999999
G0 X47.69999999999999 Y73.6
G0 X47.69999999999999 Y73.5
G0 X47.69999999999999 Y73.4
G0 X47.69999999999999 Y73.30000000000001
G0 X47.69999999999999 Y73.19999999999999
G0 X47.69999999999999 Y73.1
G0 X47.69999999999999 Y73.0
G0 X47.69999999999999 Y72.9
G0 X47.69999999999999 Y72.80000000000001
G0 X47.69999999999999 Y72.69999999999999
G0 X47.69999999999999 Y72.6
G0 X47.69999999999999 Y72.5
G0 X47.79999999999998 Y72.4
G0 X47.79999999999998 Y72.30000000000001
G0 X47.79999999999998 Y72.19999999999999
G0 X47.900000000000006 Y72.1
G0 X48.0 Y72.1
G0 X48.099999999999994 Y72.0
G0 X48.099999999999994 Y71.9
G0 X48.099999999999994 Y71.80000000000001
G0 X48.099999999999994 Y71.69999999999999
G0 X48.19999999999999 Y71.6
G0 X48.19999999999999 Y71.5
G0 X48.29999999999998 Y71.4
G0 X48.29999999999998 Y71.30000000000001
G0 X48.29999999999998 Y71.19999999999999
G0 X48.29999999999998 Y71.1
G0 X48.400000000000006 Y71.0
G0 X48.400000000000006 Y70.9
G0 X48.400000000000006 Y70.80000000000001
G0 X48.400000000000006 Y70.69999999999999
G0 X48.5 Y70.6
G0 X48.5 Y70.5
G0 X48.5 Y70.4
G0 X48.5 Y70.30000000000001
G0 X48.400000000000006 Y70.19999999999999
G0 X48.5 Y70.1
G0 X48.599999999999994 Y70.0
G0 X48.69999999999999 Y70.0
G0 X48.79999999999998 Y70.0
G0 X48.900000000000006 Y70.1
G0 X48.79999999999998 Y70.19999999999999
G0 X48.69999999999999 Y70.19999999999999
G0 X48.69999999999999 Y70.30000000000001
G0 X48.69999999999999 Y70.4
G0 X48.69999999999999 Y70.5
G0 X48.69999999999999 Y70.6
G0 X48.69999999999999 Y70.69999999999999
G0 X48.599999999999994 Y70.80000000000001
G0 X48.599999999999994 Y70.9
G0 X48.599999999999994 Y71.0
G0 X48.5 Y71.1
G0 X48.5 Y71.19999999999999
G0 X48.5 Y71.30000000000001
G0 X48.5 Y71.4
G0 X48.400000000000006 Y71.5
G0 X48.400000000000006 Y71.6
G0 X48.29999999999998 Y71.69999999999999
G0 X48.29999999999998 Y71.80000000000001
G0 X48.29999999999998 Y71.9
G0 X48.29999999999998 Y72.0
G0 X48.19999999999999 Y72.1
G0 X48.19999999999999 Y72.19999999999999
G0 X48.19999999999999 Y72.30000000000001
G0 X48.19999999999999 Y72.4
G0 X48.19999999999999 Y72.5
G0 X48.19999999999999 Y72.6
G0 X48.19999999999999 Y72.69999999999999
G0 X48.19999999999999 Y72.80000000000001
G0 X48.099999999999994 Y72.9
G0 X48.0 Y72.80000000000001
G0 X48.0 Y72.69999999999999
G0 X48.0 Y72.6
G0 X48.0 Y72.5
G0 X48.0 Y72.4
G0 X48.0 Y72.30000000000001
G0 X47.900000000000006 Y72.5
G0 X47.900000000000006 Y72.6
G0 X47.900000000000006 Y72.69999999999999
G0 X47.900000000000006 Y72.80000000000001
G0 X47.900000000000006 Y72.9
G0 X47.900000000000006 Y73.0
G0 X48.0 Y73.1
G0 X47.900000000000006 Y73.19999999999999
G0 X47.900000000000006 Y73.30000000000001
G0 X47.900000000000006 Y73.4
G0 X47.900000000000006 Y73.5
G0 X47.900000000000006 Y73.6
G0 X47.900000000000006 Y73.69999999999999
G0 X47.900000000000006 Y73.80000000000001
G0 X47.900000000000006 Y73.9
G0 X47.900000000000006 Y74.0
G0 X47.900000000000006 Y74.1
G0 X47.900000000000006 Y74.19999999999999
G0 X47.900000000000006 Y74.30000000000001
G0 X47.900000000000006 Y74.4
G0 X47.900000000000006 Y74.5
G0 X47.79999999999998 Y74.6
G0 X47.69999999999999 Y74.5
G0 X47.69999999999999 Y74.4
G0 X47.599999999999994 Y74.5
G0 X47.5 Y74.5
G0 X47.5 Y74.4
G0 Z2
G0 X47.5 Y74.69999999999999
G0 Z0
G0 X47.599999999999994 Y74.69999999999999
G0 X47.69999999999999 Y74.69999999999999
G0 X47.5 Y74.80000000000001
G0 X47.5 Y74.9
G0 X47.5 Y75.0
G0 X47.5 Y75.1
G0 X47.400000000000006 Y75.19999999999999
G0 X47.29999999999998 Y75.30000000000001
G0 X47.29999999999998 Y75.4
G0 X47.19999999999999 Y75.5
G0 X47.29999999999998 Y75.6
G0 X47.29999999999998 Y75.69999999999999
G0 X47.19999999999999 Y75.80000000000001
G0 X47.19999999999999 Y75.9
G0 X47.099999999999994 Y76.0
G0 X47.0 Y76.1
G0 X47.0 Y76.19999999999999
G0 X47.0 Y76.30000000000001
G0 X46.900000000000006 Y76.4
G0 X46.79999999999998 Y76.4
G0 X46.79999999999998 Y76.30000000000001
G0 X46.900000000000006 Y76.5
G0 X47.0 Y76.6
G0 X47.099999999999994 Y76.6
G0 X47.19999999999999 Y76.5
G0 X47.099999999999994 Y76.4
G0 Z2
G0 X47.0 Y76.69999999999999
G0 Z0
G0 X46.900000000000006 Y76.80000000000001
G0 X46.79999999999998 Y76.9
G0 X46.79999999999998 Y77.0
G0 X46.79999999999998 Y77.1
G0 X46.79999999999998 Y77.19999999999999
G0 X46.79999999999998 Y77.30000000000001
G0 X46.79999999999998 Y77.4
G0 X46.79999999999998 Y77.5
G0 X46.900000000000006 Y77.6
G0 X46.79999999999998 Y77.69999999999999
G0 Z2
G0 X46.5 Y77.80000000000001
G0 Z0
G0 X46.5 Y77.9
G0 X46.5 Y78.0
G0 X46.5 Y78.1
G0 X46.5 Y78.19999999999999
G0 X46.5 Y78.30000000000001
G0 X46.599999999999994 Y78.4
G0 Z2
G0 X49.29999999999998 Y75.1
G0 Z0
G0 X49.400000000000006 Y75.1
G0 X49.5 Y75.1
G0 X49.599999999999994 Y75.19999999999999
G0 X49.69999999999999 Y75.30000000000001
G0 X49.79999999999998 Y75.30000000000001
G0 X49.900000000000006 Y75.4
G0 X50.0 Y75.4
G0 X50.099999999999994 Y75.30000000000001
G0 X50.19999999999999 Y75.30000000000001
G0 X50.29999999999998 Y75.4
G0 X50.19999999999999 Y75.5
G0 X50.099999999999994 Y75.5
G0 Z2
G0 X50.0 Y75.19999999999999
G0 Z0
G0 X49.900000000000006 Y75.1
G0 X49.79999999999998 Y75.1
G0 X49.69999999999999 Y75.0
G0 X49.599999999999994 Y74.9
G0 X49.5 Y74.9
G0 X49.400000000000006 Y74.9
G0 X49.400000000000006 Y74.80000000000001
G0 X49.400000000000006 Y74.69999999999999
G0 X49.29999999999998 Y74.6
G0 X49.19999999999999 Y74.6
G0 X49.099999999999994 Y74.5
G0 X49.0 Y74.4
G0 X49.0 Y74.30000000000001
G0 X49.0 Y74.19999999999999
G0 X49.0 Y74.1
G0 X49.0 Y74.0
G0 X49.0 Y73.9
G0 X49.0 Y73.80000000000001
G0 X49.0 Y73.69999999999999
G0 X49.0 Y73.6
G0 X49.0 Y73.5
G0 X49.0 Y73.4
G0 X49.0 Y73.30000000000001
G0 X49.0 Y73.19999999999999
G0 X49.0 Y73.1
G0 X49.0 Y73.0
G0 X49.0 Y72.9
G0 X49.0 Y72.80000000000001
G0 X49.099999999999994 Y72.69999999999999
G0 X49.099999999999994 Y72.6
G0 X49.0 Y72.5
G0 X48.900000000000006 Y72.6
G0 X48.79999999999998 Y72.69999999999999
G0 X48.79999999999998 Y72.80000000000001
G0 X48.79999999999998 Y72.9
G0 X48.79999999999998 Y73.0
G0 X48.79999999999998 Y73.1
G0 X48.79999999999998 Y73.19999999999999
G0 X48.79999999999998 Y73.30000000000001
G0 X48.79999999999998 Y73.4
G0 X48.79999999999998 Y73.5
G0 X48.79999999999998 Y73.6
G0 X48.79999999999998 Y73.69999999999999
G0 X48.79999999999998 Y73.80000000000001
G0 X48.79999999999998 Y73.9
G0 X48.79999999999998 Y74.0
G0 X48.79999999999998 Y74.1
G0 X48.79999999999998 Y74.19999999999999
G0 X48.79999999999998 Y74.30000000000001
G0 X48.79999999999998 Y74.4
G0 X48.900000000000006 Y74.5
G0 X49.0 Y74.6
G0 X49.099999999999994 Y74.69999999999999
G0 X49.19999999999999 Y74.80000000000001
G0 X49.29999999999998 Y74.9
G0 X49.19999999999999 Y75.0
G0 Z2
G0 X49.099999999999994 Y73.0
G0 Z0
G0 X49.19999999999999 Y72.9
G0 X49.19999999999999 Y72.80000000000001
G0 X49.29999999999998 Y72.69999999999999
G0 X49.400000000000006 Y72.6
G0 X49.400000000000006 Y72.5
G0 X49.400000000000006 Y72.4
G0 X49.400000000000006 Y72.30000000000001
G0 X49.400000000000006 Y72.19999999999999
G0 X49.400000000000006 Y72.1
G0 X49.5 Y72.1
G0 X49.599999999999994 Y72.1
G0 X49.69999999999999 Y72.1
G0 X49.79999999999998 Y72.0
G0 X49.79999999999998 Y71.9
G0 X49.79999999999998 Y71.80000000000001
G0 X49.900000000000006 Y71.69999999999999
G0 X49.79999999999998 Y71.6
G0 X49.69999999999999 Y71.6
G0 X49.599999999999994 Y71.69999999999999
G0 X49.599999999999994 Y71.80000000000001
G0 X49.599999999999994 Y71.9
G0 X49.5 Y71.9
G0 X49.400000000000006 Y71.9
G0 X49.29999999999998 Y71.9
G0 X49.19999999999999 Y72.0
G0 X49.19999999999999 Y72.1
G0 X49.19999999999999 Y72.19999999999999
G0 X49.19999999999999 Y72.30000000000001
G0 X49.19999999999999 Y72.4
G0 X49.19999999999999 Y72.5
G0 Z2
G0 X50.0 Y71.80000000000001
G0 Z0
G0 X50.099999999999994 Y71.69999999999999
G0 X50.19999999999999 Y71.69999999999999
G0 X50.29999999999998 Y71.69999999999999
G0 X50.400000000000006 Y71.6
G0 X50.5 Y71.5
G0 X50.599999999999994 Y71.5
G0 X50.69999999999999 Y71.5
G0 X50.79999999999998 Y71.4
G0 X50.900000000000006 Y71.30000000000001
G0 X51.0 Y71.30000000000001
G0 X51.099999999999994 Y71.19999999999999
G0 X51.0 Y71.1
G0 X50.900000000000006 Y71.1
G0 X50.79999999999998 Y71.1
G0 X50.69999999999999 Y71.19999999999999
G0 X50.599999999999994 Y71.30000000000001
G0 X50.5 Y71.30000000000001
G0 X50.400000000000006 Y71.30000000000001
G0 X50.29999999999998 Y71.4
G0 X50.19999999999999 Y71.5
G0 X50.099999999999994 Y71.5
G0 X50.0 Y71.6
G0 X49.900000000000006 Y71.5
G0 Z2
G0 X51.19999999999999 Y71.30000000000001
G0 Z0
G0 X51.29999999999998 Y71.30000000000001
G0 X51.400000000000006 Y71.19999999999999
G0 X51.5 Y71.1
G0 X51.5 Y71.0
G0 X51.5 Y70.9
G0 X51.599999999999994 Y70.80000000000001
G0 X51.599999999999994 Y70.69999999999999
G0 X51.599999999999994 Y70.6
G0 X51.5 Y70.6
G0 X51.5 Y70.5
G0 X51.5 Y70.4
G0 X51.5 Y70.30000000000001
G0 X51.5 Y70.19999999999999
G0 X51.599999999999994 Y70.1
G0 X51.599999999999994 Y70.0
G0 X51.599999999999994 Y69.9
G0 X51.599999999999994 Y69.80000000000001
G0 X51.599999999999994 Y69.69999999999999
G0 X51.599999999999994 Y69.6
G0 X51.599999999999994 Y69.5
G0 X51.5 Y69.4
G0 X51.599999999999994 Y69.30000000000001
G0 X51.599999999999994 Y69.19999999999999
G0 X51.599999999999994 Y69.1
G0 X51.599999999999994 Y69.0
G0 X51.599999999999994 Y68.9
G0 X51.599999999999994 Y68.80000000000001
G0 X51.5 Y68.69999999999999
G0 X51.5 Y68.6
G0 X51.5 Y68.5
G0 X51.5 Y68.4
G0 X51.5 Y68.30000000000001
G0 X51.5 Y68.19999999999999
G0 X51.5 Y68.1
G0 X51.5 Y68.0
G0 X51.5 Y67.9
G0 X51.5 Y67.80000000000001
G0 X51.400000000000006 Y67.69999999999999
G0 X51.5 Y67.6
G0 X51.5 Y67.5
G0 X51.400000000000006 Y67.4
G0 X51.400000000000006 Y67.30000000000001
G0 X51.400000000000006 Y67.19999999999999
G0 X51.400000000000006 Y67.1
G0 X51.400000000000006 Y67.0
G0 X51.400000000000006 Y66.9
G0 X51.400000000000006 Y66.80000000000001
G0 X51.400000000000006 Y66.69999999999999
G0 X51.400000000000006 Y66.6
G0 X51.400000000000006 Y66.5
G0 X51.29999999999998 Y66.4
G0 X51.29999999999998 Y66.30000000000001
G0 X51.29999999999998 Y66.19999999999999
G0 X51.19999999999999 Y66.1
G0 X51.099999999999994 Y66.0
G0 X51.19999999999999 Y65.9
G0 X51.29999999999998 Y65.80000000000001
G0 X51.19999999999999 Y65.69999999999999
G0 X51.099999999999994 Y65.69999999999999
G0 X51.0 Y65.69999999999999
G0 X50.900000000000006 Y65.69999999999999
G0 X50.79999999999998 Y65.69999999999999
G0 X50.69999999999999 Y65.69999999999999
G0 X50.599999999999994 Y65.69999999999999
G0 X50.5 Y65.69999999999999
G0 X50.400000000000006 Y65.69999999999999
G0 X50.29999999999998 Y65.6
G0 X50.19999999999999 Y65.6
G0 X50.099999999999994 Y65.6
G0 X50.0 Y65.69999999999999
G0 X50.099999999999994 Y65.80000000000001
G0 X50.19999999999999 Y65.80000000000001
G0 X50.29999999999998 Y65.80000000000001
G0 Z2
G0 X50.400000000000006 Y65.5
G0 Z0
G0 X50.5 Y65.5
G0 X50.599999999999994 Y65.5
G0 X50.69999999999999 Y65.5
G0 X50.79999999999998 Y65.5
G0 X50.900000000000006 Y65.5
G0 X51.0 Y65.5
G0 X51.099999999999994 Y65.5
G0 X51.19999999999999 Y65.5
G0 X51.29999999999998 Y65.6
G0 X51.400000000000006 Y65.69999999999999
G0 X51.5 Y65.80000000000001
G0 X51.400000000000006 Y65.9
G0 X51.400000000000006 Y66.0
G0 X51.400000000000006 Y66.1
G0 X51.5 Y66.19999999999999
G0 X51.5 Y66.30000000000001
G0 X51.5 Y66.4
G0 X51.599999999999994 Y66.5
G0 X51.599999999999994 Y66.6
G0 X51.599999999999994 Y66.69999999999999
G0 X51.599999999999994 Y66.80000000000001
G0 X51.599999999999994 Y66.9
G0 X51.599999999999994 Y67.0
G0 X51.599999999999994 Y67.1
G0 X51.599999999999994 Y67.19999999999999
G0 X51.599999999999994 Y67.30000000000001
G0 X51.599999999999994 Y67.4
G0 X51.69999999999999 Y67.5
G0 X51.69999999999999 Y67.6
G0 X51.599999999999994 Y67.69999999999999
G0 X51.69999999999999 Y67.80000000000001
G0 X51.69999999999999 Y67.9
G0 X51.69999999999999 Y68.0
G0 X51.69999999999999 Y68.1
G0 X51.69999999999999 Y68.19999999999999
G0 X51.69999999999999 Y68.30000000000001
G0 X51.69999999999999 Y68.4
G0 X51.69999999999999 Y68.5
G0 X51.69999999999999 Y68.6
G0 X51.69999999999999 Y68.69999999999999
G0 X51.79999999999998 Y68.80000000000001
G0 X51.79999999999998 Y68.9
G0 X51.79999999999998 Y69.0
G0 X51.79999999999998 Y69.1
G0 X51.79999999999998 Y69.19999999999999
G0 X51.79999999999998 Y69.30000000000001
G0 X51.69999999999999 Y69.4
G0 X51.79999999999998 Y69.5
G0 X51.79999999999998 Y69.6
G0 X51.79999999999998 Y69.69999999999999
G0 X51.79999999999998 Y69.80000000000001
G0 X51.79999999999998 Y69.9
G0 X51.79999999999998 Y70.0
G0 X51.79999999999998 Y70.1
G0 X51.69999999999999 Y70.19999999999999
G0 X51.69999999999999 Y70.30000000000001
G0 X51.69999999999999 Y70.4
G0 X51.69999999999999 Y70.5
G0 Z2
G0 X51.400000000000006 Y70.69999999999999
G0 Z0
G0 X51.29999999999998 Y70.80000000000001
G0 X51.29999999999998 Y70.9
G0 X51.29999999999998 Y71.0
G0 X51.19999999999999 Y71.1
G0 Z2
G0 X51.599999999999994 Y91.0
G0 Z0
G0 X51.5 Y91.1
G0 X51.599999999999994 Y91.19999999999999
G0 X51.599999999999994 Y91.30000000000001
G0 X51.599999999999994 Y91.4
G0 X51.599999999999994 Y91.5
G0 X51.599999999999994 Y91.6
G0 X51.599999999999994 Y91.69999999999999
G0 X51.599999999999994 Y91.80000000000001
G0 X51.599999999999994 Y91.9
G0 X51.599999999999994 Y92.0
G0 X51.599999999999994 Y92.1
G0 X51.599999999999994 Y92.19999999999999
G0 X51.599999999999994 Y92.30000000000001
G0 X51.599999999999994 Y92.4
G0 X51.5 Y92.5
G0 X51.400000000000006 Y92.6
G0 X51.400000000000006 Y92.69999999999999
G0 X51.400000000000006 Y92.80000000000001
G0 X51.400000000000006 Y92.9
G0 X51.400000000000006 Y93.0
G0 X51.400000000000006 Y93.1
G0 X51.29999999999998 Y93.19999999999999
G0 X51.19999999999999 Y93.30000000000001
G0 X51.19999999999999 Y93.4
G0 X51.099999999999994 Y93.5
G0 X51.099999999999994 Y93.6
G0 X51.099999999999994 Y93.69999999999999
G0 X51.099999999999994 Y93.80000000000001
G0 X51.099999999999994 Y93.9
G0 X51.099999999999994 Y94.0
G0 X51.099999999999994 Y94.1
G0 X51.099999999999994 Y94.19999999999999
G0 X51.099999999999994 Y94.30000000000001
G0 X51.0 Y94.4
G0 X50.900000000000006 Y94.4
G0 X50.900000000000006 Y94.30000000000001
G0 X50.79999999999998 Y94.19999999999999
G0 X50.69999999999999 Y94.30000000000001
G0 X50.69999999999999 Y94.4
G0 X50.69999999999999 Y94.5
G0 X50.69999999999999 Y94.6
G0 X50.69999999999999 Y94.69999999999999
G0 X50.69999999999999 Y94.80000000000001
G0 X50.69999999999999 Y94.9
G0 X50.69999999999999 Y95.0
G0 X50.69999999999999 Y95.1
G0 X50.69999999999999 Y95.19999999999999
G0 X50.69999999999999 Y95.30000000000001
G0 X50.69999999999999 Y95.4
G0 X50.69999999999999 Y95.5
G0 X50.69999999999999 Y95.6
G0 X50.69999999999999 Y95.69999999999999
G0 X50.69999999999999 Y95.80000000000001
G0 X50.69999999999999 Y95.9
G0 X50.599999999999994 Y95.9
G0 X50.599999999999994 Y96.0
G0 X50.400000000000006 Y96.0
G0 X50.400000000000006 Y95.9
G0 X50.5 Y95.80000000000001
G0 Z2
G0 X50.400000000000006 Y96.1
G0 Z0
G0 X50.29999999999998 Y96.19999999999999
G0 X50.29999999999998 Y96.30000000000001
G0 X50.29999999999998 Y96.4
G0 X50.29999999999998 Y96.5
G0 X50.29999999999998 Y96.6
G0 X50.29999999999998 Y96.69999999999999
G0 X50.29999999999998 Y96.80000000000001
G0 X50.29999999999998 Y96.9
G0 X50.19999999999999 Y97.0
G0 X50.19999999999999 Y97.1
G0 X50.099999999999994 Y97.19999999999999
G0 X50.099999999999994 Y97.30000000000001
G0 X50.0 Y97.4
G0 X50.0 Y97.5
G0 X50.0 Y97.6
G0 X50.0 Y97.69999999999999
G0 X50.0 Y97.80000000000001
G0 X49.900000000000006 Y97.9
G0 X49.900000000000006 Y98.0
G0 X49.900000000000006 Y98.1
G0 X49.900000000000006 Y98.19999999999999
G0 X49.900000000000006 Y98.30000000000001
G0 X49.900000000000006 Y98.4
G0 X49.79999999999998 Y98.5
G0 X49.69999999999999 Y98.6
G0 X49.79999999999998 Y98.69999999999999
G0 X49.69999999999999 Y98.80000000000001
G0 X49.69999999999999 Y98.9
G0 X49.69999999999999 Y99.0
G0 X49.599999999999994 Y99.1
G0 X49.599999999999994 Y99.19999999999999
G0 X49.599999999999994 Y99.30000000000001
G0 X49.599999999999994 Y99.4
G0 X49.599999999999994 Y99.5
G0 X49.599999999999994 Y99.6
G0 X49.5 Y99.69999999999999
G0 X49.5 Y99.80000000000001
G0 X49.5 Y99.9
G0 X49.5 Y100.0
G0 X49.5 Y100.1
G0 X49.400000000000006 Y100.19999999999999
G0 X49.400000000000006 Y100.30000000000001
G0 X49.29999999999998 Y100.30000000000001
G0 X49.19999999999999 Y100.4
G0 X49.19999999999999 Y100.5
G0 X49.19999999999999 Y100.6
G0 X49.19999999999999 Y100.69999999999999
G0 X49.099999999999994 Y100.80000000000001
G0 X49.0 Y100.9
G0 X49.0 Y101.0
G0 X48.900000000000006 Y101.1
G0 X48.79999999999998 Y101.19999999999999
G0 X48.79999999999998 Y101.30000000000001
G0 X48.79999999999998 Y101.4
G0 X48.79999999999998 Y101.5
G0 X48.69999999999999 Y101.6
G0 X48.79999999999998 Y101.69999999999999
G0 X48.79999999999998 Y101.80000000000001
G0 X48.79999999999998 Y101.9
G0 X48.79999999999998 Y102.0
G0 X48.79999999999998 Y102.1
G0 X48.69999999999999 Y102.19999999999999
G0 X48.79999999999998 Y102.30000000000001
G0 X48.900000000000006 Y102.19999999999999
G0 X49.0 Y102.1
G0 X49.0 Y102.0
G0 X49.0 Y101.9
G0 X49.0 Y101.80000000000001
G0 X49.0 Y101.69999999999999
G0 X49.0 Y101.6
G0 X49.0 Y101.5
G0 X49.0 Y101.4
G0 X49.0 Y101.30000000000001
G0 X49.0 Y101.19999999999999
G0 X49.099999999999994 Y101.19999999999999
G0 X49.19999999999999 Y101.1
G0 X49.19999999999999 Y101.0
G0 X49.19999999999999 Y100.9
G0 X49.29999999999998 Y100.9
G0 X49.400000000000006 Y100.80000000000001
G0 X49.400000000000006 Y100.69999999999999
G0 X49.400000000000006 Y100.6
G0 X49.400000000000006 Y100.5
G0 X49.5 Y100.4
G0 X49.599999999999994 Y100.30000000000001
G0 X49.69999999999999 Y100.19999999999999
G0 X49.69999999999999 Y100.1
G0 X49.69999999999999 Y100.0
G0 X49.69999999999999 Y99.9
G0 X49.69999999999999 Y99.80000000000001
G0 X49.69999999999999 Y99.69999999999999
G0 X49.79999999999998 Y99.6
G0 X49.79999999999998 Y99.5
G0 X49.79999999999998 Y99.4
G0 X49.79999999999998 Y99.30000000000001
G0 X49.79999999999998 Y99.19999999999999
G0 X49.79999999999998 Y99.1
G0 X49.900000000000006 Y99.0
G0 X49.900000000000006 Y98.9
G0 X49.900000000000006 Y98.80000000000001
G0 X50.0 Y98.69999999999999
G0 X50.0 Y98.6
G0 X50.0 Y98.5
G0 X50.099999999999994 Y98.4
G0 X50.099999999999994 Y98.30000000000001
G0 X50.099999999999994 Y98.19999999999999
G0 X50.099999999999994 Y98.1
G0 X50.099999999999994 Y98.0
G0 X50.099999999999994 Y97.9
G0 X50.19999999999999 Y97.80000000000001
G0 X50.19999999999999 Y97.69999999999999
G0 X50.19999999999999 Y97.6
G0 X50.19999999999999 Y97.5
G0 X50.19999999999999 Y97.4
G0 X50.29999999999998 Y97.30000000000001
G0 X50.29999999999998 Y97.19999999999999
G0 X50.400000000000006 Y97.1
G0 X50.400000000000006 Y97.0
G0 X50.5 Y96.9
G0 X50.5 Y96.80000000000001
G0 X50.5 Y96.69999999999999
G0 X50.5 Y96.6
G0 X50.5 Y96.5
G0 X50.5 Y96.4
G0 X50.599999999999994 Y96.30000000000001
G0 X50.599999999999994 Y96.19999999999999
G0 X50.5 Y96.19999999999999
G0 X50.69999999999999 Y96.19999999999999
G0 X50.79999999999998 Y96.1
G0 X50.79999999999998 Y96.0
G0 X50.900000000000006 Y95.9
G0 X50.900000000000006 Y95.80000000000001
G0 X50.900000000000006 Y95.69999999999999
G0 X50.900000000000006 Y95.6
G0 X50.900000000000006 Y95.5
G0 X50.900000000000006 Y95.4
G0 X50.900000000000006 Y95.30000000000001
G0 X50.900000000000006 Y95.19999999999999
G0 X50.900000000000006 Y95.1
G0 X50.900000000000006 Y95.0
G0 X50.900000000000006 Y94.9
G0 X50.900000000000006 Y94.80000000000001
G0 X50.900000000000006 Y94.69999999999999
G0 X50.900000000000006 Y94.6
G0 X50.900000000000006 Y94.5
G0 X51.0 Y94.5
G0 X51.0 Y94.6
G0 X51.0 Y94.69999999999999
G0 X51.0 Y94.80000000000001
G0 X51.099999999999994 Y94.9
G0 X51.19999999999999 Y94.80000000000001
G0 X51.19999999999999 Y94.69999999999999
G0 X51.19999999999999 Y94.6
G0 X51.19999999999999 Y94.5
G0 X51.19999999999999 Y94.4
G0 X51.29999999999998 Y94.30000000000001
G0 X51.29999999999998 Y94.19999999999999
G0 X51.29999999999998 Y94.1
G0 X51.29999999999998 Y94.0
G0 X51.29999999999998 Y93.9
G0 X51.29999999999998 Y93.80000000000001
G0 X51.29999999999998 Y93.69999999999999
G0 X51.29999999999998 Y93.6
G0 X51.29999999999998 Y93.5
G0 X51.400000000000006 Y93.4
G0 X51.400000000000006 Y93.30000000000001
G0 X51.5 Y93.19999999999999
G0 X51.599999999999994 Y93.1
G0 X51.599999999999994 Y93.0
G0 X51.599999999999994 Y92.9
G0 X51.599999999999994 Y92.80000000000001
G0 X51.599999999999994 Y92.69999999999999
G0 X51.69999999999999 Y92.6
G0 X51.69999999999999 Y92.5
G0 X51.79999999999998 Y92.4
G0 X51.79999999999998 Y92.30000000000001
G0 X51.79999999999998 Y92.19999999999999
G0 X51.79999999999998 Y92.1
G0 X51.79999999999998 Y92.0
G0 X51.79999999999998 Y91.9
G0 X51.79999999999998 Y91.80000000000001
G0 X51.79999999999998 Y91.69999999999999
G0 X51.79999999999998 Y91.6
G0 X51.79999999999998 Y91.5
G0 X51.79999999999998 Y91.4
G0 X51.79999999999998 Y91.30000000000001
G0 X51.79999999999998 Y91.19999999999999
G0 X51.69999999999999 Y91.1
G0 Z2
G0 X46.400000000000006 Y99.1
G0 Z0
G0 X46.29999999999998 Y99.19999999999999
G0 X46.29999999999998 Y99.30000000000001
G0 X46.19999999999999 Y99.4
G0 X46.19999999999999 Y99.5
G0 X46.19999999999999 Y99.6
G0 X46.19999999999999 Y99.69999999999999
G0 X46.19999999999999 Y99.80000000000001
G0 X46.19999999999999 Y99.9
G0 X46.19999999999999 Y100.0
G0 X46.19999999999999 Y100.1
G0 X46.19999999999999 Y100.19999999999999
G0 X46.19999999999999 Y100.30000000000001
G0 X46.19999999999999 Y100.4
G0 X46.19999999999999 Y100.5
G0 X46.099999999999994 Y100.6
G0 X46.19999999999999 Y100.69999999999999
G0 X46.29999999999998 Y100.6
G0 X46.400000000000006 Y100.5
G0 X46.400000000000006 Y100.4
G0 X46.400000000000006 Y100.30000000000001
G0 X46.400000000000006 Y100.19999999999999
G0 X46.400000000000006 Y100.1
G0 X46.400000000000006 Y100.0
G0 X46.400000000000006 Y99.9
G0 X46.400000000000006 Y99.80000000000001
G0 X46.400000000000006 Y99.69999999999999
G0 X46.400000000000006 Y99.6
G0 X46.5 Y99.5
G0 X46.400000000000006 Y99.4
G0 X46.5 Y99.30000000000001
G0 X46.5 Y99.19999999999999
G0 Z2
G0 X47.79999999999998 Y105.1
G0 Z0
G0 X47.69999999999999 Y105.19999999999999
G0 X47.69999999999999 Y105.30000000000001
G0 X47.69999999999999 Y105.4
G0 X47.69999999999999 Y105.5
G0 X47.69999999999999 Y105.6
G0 X47.69999999999999 Y105.69999999999999
G0 X47.69999999999999 Y105.80000000000001
G0 X47.69999999999999 Y105.9
G0 X47.69999999999999 Y106.0
G0 X47.599999999999994 Y106.1
G0 X47.599999999999994 Y106.19999999999999
G0 X47.69999999999999 Y106.30000000000001
G0 X47.69999999999999 Y106.4
G0 X47.599999999999994 Y106.5
G0 X47.599999999999994 Y106.6
G0 X47.599999999999994 Y106.69999999999999
G0 X47.599999999999994 Y106.80000000000001
G0 X47.5 Y106.80000000000001
G0 X47.5 Y106.9
G0 X47.5 Y107.0
G0 X47.5 Y107.1
G0 X47.5 Y107.19999999999999
G0 X47.5 Y107.30000000000001
G0 X47.5 Y107.4
G0 X47.599999999999994 Y107.5
G0 X47.5 Y107.6
G0 X47.5 Y107.69999999999999
G0 X47.5 Y107.80000000000001
G0 X47.400000000000006 Y107.9
G0 X47.400000000000006 Y108.0
G0 X47.400000000000006 Y108.1
G0 X47.29999999999998 Y108.19999999999999
G0 X47.19999999999999 Y108.1
G0 X47.19999999999999 Y108.0
G0 X47.19999999999999 Y107.9
G0 X47.29999999999998 Y107.80000000000001
G0 X47.29999999999998 Y107.69999999999999
G0 X47.29999999999998 Y107.6
G0 X47.29999999999998 Y107.5
G0 X47.29999999999998 Y107.4
G0 X47.29999999999998 Y107.30000000000001
G0 X47.29999999999998 Y107.19999999999999
G0 X47.29999999999998 Y107.1
G0 X47.29999999999998 Y107.0
G0 X47.29999999999998 Y106.9
G0 X47.29999999999998 Y106.80000000000001
G0 X47.400000000000006 Y106.69999999999999
G0 X47.400000000000006 Y106.6
G0 X47.400000000000006 Y106.5
G0 X47.5 Y106.4
G0 Z2
G0 X47.79999999999998 Y106.5
G0 Z0
G0 X47.79999999999998 Y106.6
G0 X47.79999999999998 Y106.69999999999999
G0 X47.79999999999998 Y106.80000000000001
G0 X47.69999999999999 Y106.9
G0 Z2
G0 X47.900000000000006 Y106.4
G0 Z0
G0 X47.900000000000006 Y106.30000000000001
G0 X47.79999999999998 Y106.19999999999999
G0 X47.900000000000006 Y106.1
G0 X47.900000000000006 Y106.0
G0 X47.900000000000006 Y105.9
G0 X47.900000000000006 Y105.80000000000001
G0 X47.900000000000006 Y105.69999999999999
G0 X47.900000000000006 Y105.6
G0 X47.900000000000006 Y105.5
G0 X47.900000000000006 Y105.4
G0 X47.900000000000006 Y105.30000000000001
G0 X47.900000000000006 Y105.19999999999999
G0 Z2
G0 X47.099999999999994 Y108.19999999999999
G0 Z0
G0 X47.0 Y108.30000000000001
G0 X47.0 Y108.4
G0 X47.0 Y108.5
G0 X46.900000000000006 Y108.6
G0 X46.900000000000006 Y108.69999999999999
G0 X46.900000000000006 Y108.80000000000001
G0 X46.900000000000006 Y108.9
G0 X46.900000000000006 Y109.0
G0 X46.900000000000006 Y109.1
G0 X46.900000000000006 Y109.19999999999999
G0 X46.900000000000006 Y109.30000000000001
G0 X46.900000000000006 Y109.4
G0 X46.79999999999998 Y109.5
G0 X46.79999999999998 Y109.6
G0 X46.69999999999999 Y109.69999999999999
G0 X46.599999999999994 Y109.80000000000001
G0 X46.599999999999994 Y109.9
G0 X46.599999999999994 Y110.0
G0 X46.599999999999994 Y110.1
G0 X46.599999999999994 Y110.19999999999999
G0 X46.599999999999994 Y110.30000000000001
G0 X46.5 Y110.4
G0 X46.400000000000006 Y110.5
G0 X46.400000000000006 Y110.6
G0 X46.400000000000006 Y110.69999999999999
G0 X46.400000000000006 Y110.80000000000001
G0 X46.400000000000006 Y110.9
G0 X46.400000000000006 Y111.0
G0 X46.29999999999998 Y111.10000000000002
G0 X46.29999999999998 Y111.19999999999999
G0 X46.400000000000006 Y111.19999999999999
G0 X46.5 Y111.10000000000002
G0 X46.599999999999994 Y111.0
G0 X46.599999999999994 Y110.9
G0 X46.599999999999994 Y110.80000000000001
G0 X46.599999999999994 Y110.69999999999999
G0 X46.599999999999994 Y110.6
G0 X46.69999999999999 Y110.5
G0 X46.69999999999999 Y110.4
G0 X46.79999999999998 Y110.30000000000001
G0 X46.79999999999998 Y110.19999999999999
G0 X46.79999999999998 Y110.1
G0 X46.79999999999998 Y110.0
G0 X46.79999999999998 Y109.9
G0 X46.79999999999998 Y109.80000000000001
G0 X46.900000000000006 Y109.69999999999999
G0 X47.0 Y109.6
G0 X47.0 Y109.5
G0 X47.099999999999994 Y109.4
G0 X47.099999999999994 Y109.30000000000001
G0 X47.099999999999994 Y109.19999999999999
G0 X47.099999999999994 Y109.1
G0 X47.099999999999994 Y109.0
G0 X47.099999999999994 Y108.9
G0 X47.099999999999994 Y108.80000000000001
G0 X47.099999999999994 Y108.69999999999999
G0 X47.099999999999994 Y108.6
G0 X47.19999999999999 Y108.5
G0 X47.19999999999999 Y108.4
G0 X47.19999999999999 Y108.30000000000001
G0 Z2
G0 X46.5 Y111.30000000000001
G0 Z0
G0 X46.400000000000006 Y111.4
G0 X46.400000000000006 Y111.5
G0 X46.400000000000006 Y111.60000000000002
G0 X46.29999999999998 Y111.69999999999999
G0 X46.19999999999999 Y111.80000000000001
G0 X46.19999999999999 Y111.9
G0 X46.19999999999999 Y112.0
G0 X46.099999999999994 Y112.10000000000002
G0 X46.0 Y112.10000000000002
G0 X46.0 Y112.19999999999999
G0 X46.0 Y112.30000000000001
G0 X46.0 Y112.4
G0 X45.900000000000006 Y112.5
G0 X46.0 Y112.60000000000002
G0 X46.0 Y112.69999999999999
G0 X45.900000000000006 Y112.80000000000001
G0 X45.79999999999998 Y112.69999999999999
G0 X45.69999999999999 Y112.60000000000002
G0 X45.69999999999999 Y112.5
G0 X45.69999999999999 Y112.4
G0 X45.79999999999998 Y112.30000000000001
G0 X45.79999999999998 Y112.19999999999999
G0 X45.79999999999998 Y112.10000000000002
G0 X45.900000000000006 Y112.0
G0 X46.0 Y111.9
G0 X46.0 Y111.80000000000001
G0 X46.0 Y111.69999999999999
G0 X46.099999999999994 Y111.60000000000002
G0 X46.19999999999999 Y111.5
G0 X46.19999999999999 Y111.4
G0 X46.19999999999999 Y111.30000000000001
G0 Z2
G0 X45.69999999999999 Y112.80000000000001
G0 Z0
G0 X45.79999999999998 Y112.9
G0 X45.79999999999998 Y113.0
G0 X45.79999999999998 Y113.10000000000002
G0 X45.69999999999999 Y113.19999999999999
G0 X45.69999999999999 Y113.30000000000001
G0 X45.69999999999999 Y113.4
G0 X45.599999999999994 Y113.5
G0 X45.599999999999994 Y113.60000000000002
G0 X45.69999999999999 Y113.69999999999999
G0 X45.79999999999998 Y113.69999999999999
G0 X45.79999999999998 Y113.80000000000001
G0 X45.79999999999998 Y113.9
G0 X45.69999999999999 Y114.0
G0 X45.79999999999998 Y114.10000000000002
G0 X45.79999999999998 Y114.19999999999999
G0 X45.79999999999998 Y114.30000000000001
G0 X45.79999999999998 Y114.4
G0 X45.79999999999998 Y114.5
G0 X45.69999999999999 Y114.60000000000002
G0 X45.79999999999998 Y114.69999999999999
G0 X45.900000000000006 Y114.69999999999999
G0 X46.0 Y114.60000000000002
G0 X46.0 Y114.5
G0 X46.0 Y114.4
G0 X46.0 Y114.30000000000001
G0 X46.0 Y114.19999999999999
G0 X46.0 Y114.10000000000002
G0 X45.900000000000006 Y114.0
G0 X46.0 Y113.9
G0 X46.0 Y113.80000000000001
G0 X46.0 Y113.69999999999999
G0 X45.900000000000006 Y113.60000000000002
G0 X45.900000000000006 Y113.5
G0 X45.900000000000006 Y113.4
G0 X45.900000000000006 Y113.30000000000001
G0 X45.900000000000006 Y113.19999999999999
G0 X46.0 Y113.10000000000002
G0 X46.0 Y113.0
G0 X46.0 Y112.9
G0 Z2
G0 X58.19999999999999 Y115.30000000000001
G0 Z0
G0 X58.29999999999998 Y115.19999999999999
G0 X58.400000000000006 Y115.19999999999999
G0 X58.5 Y115.30000000000001
G0 X58.599999999999994 Y115.30000000000001
G0 X58.69999999999999 Y115.19999999999999
G0 X58.79999999999998 Y115.30000000000001
G0 X58.900000000000006 Y115.30000000000001
G0 X59.0 Y115.30000000000001
G0 X59.099999999999994 Y115.30000000000001
G0 X59.19999999999999 Y115.30000000000001
G0 X59.29999999999998 Y115.4
G0 X59.400000000000006 Y115.4
G0 X59.5 Y115.4
G0 X59.599999999999994 Y115.30000000000001
G0 X59.69999999999999 Y115.30000000000001
G0 X59.79999999999998 Y115.4
G0 X59.79999999999998 Y115.5
G0 X59.69999999999999 Y115.60000000000002
G0 X59.69999999999999 Y115.69999999999999
G0 X59.79999999999998 Y115.80000000000001
G0 X59.900000000000006 Y115.9
G0 X60.0 Y115.80000000000001
G0 X60.099999999999994 Y115.69999999999999
G0 X60.19999999999999 Y115.69999999999999
G0 X60.29999999999998 Y115.69999999999999
G0 X60.400000000000006 Y115.69999999999999
G0 X60.5 Y115.69999999999999
G0 X60.599999999999994 Y115.69999999999999
G0 X60.69999999999999 Y115.69999999999999
G0 X60.79999999999998 Y115.69999999999999
G0 X60.900000000000006 Y115.69999999999999
G0 X61.0 Y115.80000000000001
G0 X61.099999999999994 Y115.80000000000001
G0 X61.19999999999999 Y115.80000000000001
G0 X61.29999999999998 Y115.9
G0 X61.400000000000006 Y115.9
G0 X61.5 Y115.9
G0 X61.599999999999994 Y116.0
G0 X61.69999999999999 Y116.0
G0 X61.79999999999998 Y116.10000000000002
G0 X61.69999999999999 Y116.19999999999999
G0 X61.599999999999994 Y116.19999999999999
G0 X61.5 Y116.10000000000002
G0 X61.400000000000006 Y116.10000000000002
G0 X61.29999999999998 Y116.10000000000002
G0 X61.19999999999999 Y116.0
G0 X61.099999999999994 Y116.0
G0 X61.0 Y116.0
G0 X60.900000000000006 Y115.9
G0 X60.79999999999998 Y115.9
G0 X60.69999999999999 Y115.9
G0 X60.599999999999994 Y115.9
G0 X60.5 Y115.9
G0 X60.400000000000006 Y115.9
G0 X60.29999999999998 Y115.9
G0 X60.19999999999999 Y115.9
G0 X60.099999999999994 Y115.9
G0 Z2
G0 X60.0 Y115.60000000000002
G0 Z0
G0 X59.900000000000006 Y115.60000000000002
G0 Z2
G0 X59.599999999999994 Y115.5
G0 Z0
G0 X59.5 Y115.60000000000002
G0 X59.400000000000006 Y115.60000000000002
G0 X59.29999999999998 Y115.60000000000002
G0 X59.19999999999999 Y115.5
G0 X59.099999999999994 Y115.5
G0 X59.0 Y115.5
G0 X58.900000000000006 Y115.5
G0 X58.79999999999998 Y115.5
G0 X58.69999999999999 Y115.4
G0 X58.599999999999994 Y115.5
G0 X58.5 Y115.5
G0 X58.400000000000006 Y115.4
G0 X58.29999999999998 Y115.4
G0 Z2
G0 X60.29999999999998 Y117.9
G0 Z0
G0 X60.400000000000006 Y117.9
G0 X60.5 Y117.9
G0 X60.599999999999994 Y117.9
G0 X60.69999999999999 Y117.9
G0 X60.79999999999998 Y117.9
G0 X60.900000000000006 Y117.9
G0 X61.0 Y117.9
G0 X61.099999999999994 Y117.9
G0 X61.19999999999999 Y117.9
G0 X61.29999999999998 Y117.9
G0 X61.400000000000006 Y117.9
G0 X61.5 Y117.9
G0 X61.599999999999994 Y117.9
G0 X61.69999999999999 Y117.9
G0 X61.79999999999998 Y117.9
G0 X61.900000000000006 Y117.9
G0 X62.0 Y117.9
G0 X62.099999999999994 Y117.9
G0 X62.19999999999999 Y118.0
G0 X62.29999999999998 Y118.0
G0 X62.400000000000006 Y118.10000000000002
G0 X62.400000000000006 Y118.19999999999999
G0 X62.29999999999998 Y118.19999999999999
G0 X62.19999999999999 Y118.19999999999999
G0 X62.099999999999994 Y118.10000000000002
G0 X62.0 Y118.10000000000002
G0 X61.900000000000006 Y118.10000000000002
G0 X61.79999999999998 Y118.10000000000002
G0 X61.69999999999999 Y118.10000000000002
G0 X61.599999999999994 Y118.10000000000002
G0 X61.5 Y118.10000000000002
G0 X61.400000000000006 Y118.10000000000002
G0 X61.29999999999998 Y118.10000000000002
G0 X61.19999999999999 Y118.10000000000002
G0 X61.099999999999994 Y118.10000000000002
G0 X61.0 Y118.10000000000002
G0 X60.900000000000006 Y118.10000000000002
G0 X60.79999999999998 Y118.10000000000002
G0 X60.69999999999999 Y118.10000000000002
G0 X60.599999999999994 Y118.10000000000002
G0 X60.5 Y118.10000000000002
G0 X60.400000000000006 Y118.10000000000002
G0 X60.29999999999998 Y118.10000000000002
G0 X60.19999999999999 Y118.0
G0 Z2
G0 X62.29999999999998 Y118.30000000000001
G0 Z0
G0 X62.400000000000006 Y118.4
G0 X62.5 Y118.30000000000001
G0 X62.599999999999994 Y118.30000000000001
G0 X62.69999999999999 Y118.19999999999999
G0 X62.79999999999998 Y118.30000000000001
G0 X62.900000000000006 Y118.30000000000001
G0 X63.0 Y118.30000000000001
G0 X63.099999999999994 Y118.30000000000001
G0 X63.19999999999999 Y118.30000000000001
G0 X63.29999999999998 Y118.30000000000001
G0 X63.400000000000006 Y118.30000000000001
G0 X63.5 Y118.4
G0 X63.400000000000006 Y118.5
G0 X63.29999999999998 Y118.5
G0 X63.19999999999999 Y118.5
G0 X63.099999999999994 Y118.5
G0 X63.0 Y118.5
G0 X62.900000000000006 Y118.5
G0 X62.79999999999998 Y118.5
G0 X62.69999999999999 Y118.5
G0 X62.599999999999994 Y118.5
G0 X62.5 Y118.5
G0 Z2
G0 X63.29999999999998 Y118.69999999999999
G0 Z0
G0 X63.400000000000006 Y118.60000000000002
G0 X63.5 Y118.60000000000002
G0 X63.599999999999994 Y118.60000000000002
G0 X63.69999999999999 Y118.60000000000002
G0 X63.79999999999998 Y118.60000000000002
G0 X63.900000000000006 Y118.60000000000002
G0 X64.0 Y118.60000000000002
G0 X64.1 Y118.69999999999999
G0 X64.19999999999999 Y118.69999999999999
G0 X64.29999999999998 Y118.80000000000001
G0 X64.4 Y118.80000000000001
G0 X64.5 Y118.80000000000001
G0 X64.6 Y118.80000000000001
G0 X64.69999999999999 Y118.9
G0 X64.79999999999998 Y118.9
G0 X64.9 Y119.0
G0 X65.0 Y119.0
G0 X65.1 Y119.0
G0 X65.19999999999999 Y119.0
G0 X65.29999999999998 Y119.0
G0 X65.4 Y119.0
G0 X65.5 Y119.0
G0 X65.6 Y119.0
G0 X65.69999999999999 Y119.0
G0 X65.79999999999998 Y119.10000000000002
G0 X65.9 Y119.19999999999999
G0 X65.9 Y119.30000000000001
G0 X65.79999999999998 Y119.30000000000001
G0 X65.69999999999999 Y119.30000000000001
G0 X65.69999999999999 Y119.4
G0 X65.6 Y119.4
G0 X65.5 Y119.30000000000001
G0 X65.5 Y119.19999999999999
G0 X65.4 Y119.19999999999999
G0 X65.29999999999998 Y119.19999999999999
G0 X65.19999999999999 Y119.19999999999999
G0 X65.1 Y119.19999999999999
G0 X65.0 Y119.19999999999999
G0 X64.9 Y119.19999999999999
G0 X64.79999999999998 Y119.10000000000002
G0 X64.69999999999999 Y119.10000000000002
G0 X64.6 Y119.0
G0 X64.5 Y119.0
G0 X64.4 Y119.0
G0 X64.29999999999998 Y119.0
G0 X64.19999999999999 Y118.9
G0 X64.1 Y118.9
G0 X64.0 Y118.80000000000001
G0 X63.900000000000006 Y118.80000000000001
G0 X63.79999999999998 Y118.80000000000001
G0 X63.69999999999999 Y118.80000000000001
G0 X63.599999999999994 Y118.80000000000001
G0 X63.5 Y118.80000000000001
G0 X63.400000000000006 Y118.80000000000001
G0 Z2
G0 X64.4 Y117.10000000000002
G0 Z0
G0 X64.5 Y117.10000000000002
G0 X64.6 Y117.10000000000002
G0 X64.69999999999999 Y117.10000000000002
G0 X64.79999999999998 Y117.10000000000002
G0 X64.9 Y117.10000000000002
G0 X65.0 Y117.0
G0 X65.1 Y117.0
G0 X65.19999999999999 Y117.0
G0 X65.29999999999998 Y117.0
G0 X65.4 Y117.0
G0 X65.5 Y117.10000000000002
G0 X65.4 Y117.19999999999999
G0 X65.29999999999998 Y117.19999999999999
G0 X65.19999999999999 Y117.19999999999999
G0 X65.1 Y117.19999999999999
G0 X65.0 Y117.19999999999999
G0 Z2
G0 X64.9 Y116.9
G0 Z0
G0 X64.79999999999998 Y116.9
G0 X64.69999999999999 Y116.9
G0 X64.6 Y116.9
G0 X64.5 Y116.9
G0 X64.4 Y116.9
G0 X64.29999999999998 Y117.0
G0 Z2
G0 X64.4 Y116.69999999999999
G0 Z0
G0 X64.29999999999998 Y116.60000000000002
G0 X64.19999999999999 Y116.60000000000002
G0 X64.1 Y116.60000000000002
G0 X64.0 Y116.60000000000002
G0 X63.900000000000006 Y116.60000000000002
G0 X63.79999999999998 Y116.60000000000002
G0 X63.69999999999999 Y116.60000000000002
G0 X63.599999999999994 Y116.60000000000002
G0 X63.5 Y116.60000000000002
G0 X63.400000000000006 Y116.60000000000002
G0 X63.29999999999998 Y116.60000000000002
G0 X63.19999999999999 Y116.60000000000002
G0 X63.099999999999994 Y116.60000000000002
G0 X63.0 Y116.60000000000002
G0 X62.900000000000006 Y116.60000000000002
G0 X62.79999999999998 Y116.60000000000002
G0 X62.69999999999999 Y116.60000000000002
G0 X62.599999999999994 Y116.60000000000002
G0 X62.5 Y116.60000000000002
G0 X62.400000000000006 Y116.60000000000002
G0 X62.29999999999998 Y116.60000000000002
G0 X62.19999999999999 Y116.60000000000002
G0 X62.099999999999994 Y116.60000000000002
G0 X62.0 Y116.5
G0 X61.900000000000006 Y116.4
G0 X61.79999999999998 Y116.30000000000001
G0 X61.900000000000006 Y116.19999999999999
G0 X62.0 Y116.30000000000001
G0 X62.099999999999994 Y116.4
G0 X62.19999999999999 Y116.4
G0 X62.29999999999998 Y116.4
G0 X62.400000000000006 Y116.4
G0 X62.5 Y116.4
G0 X62.599999999999994 Y116.4
G0 X62.69999999999999 Y116.4
G0 X62.79999999999998 Y116.4
G0 X62.900000000000006 Y116.4
G0 X63.0 Y116.4
G0 X63.099999999999994 Y116.4
G0 X63.19999999999999 Y116.4
G0 X63.29999999999998 Y116.4
G0 X63.400000000000006 Y116.4
G0 X63.5 Y116.4
G0 X63.599999999999994 Y116.4
G0 X63.69999999999999 Y116.4
G0 X63.79999999999998 Y116.4
G0 X63.900000000000006 Y116.4
G0 X64.0 Y116.4
G0 X64.1 Y116.4
G0 X64.19999999999999 Y116.4
G0 X64.29999999999998 Y116.4
G0 X64.4 Y116.5
G0 X64.5 Y116.60000000000002
G0 Z2
G0 X65.5 Y117.30000000000001
G0 Z0
G0 X65.6 Y117.19999999999999
G0 X65.69999999999999 Y117.19999999999999
G0 X65.79999999999998 Y117.19999999999999
G0 X65.9 Y117.30000000000001
G0 X66.0 Y117.30000000000001
G0 X66.1 Y117.30000000000001
G0 X66.19999999999999 Y117.4
G0 X66.29999999999998 Y117.4
G0 X66.4 Y117.30000000000001
G0 X66.5 Y117.4
G0 X66.6 Y117.4
G0 X66.69999999999999 Y117.4
G0 X66.79999999999998 Y117.5
G0 X66.9 Y117.5
G0 X67.0 Y117.5
G0 X67.1 Y117.5
G0 X67.19999999999999 Y117.4
G0 X67.29999999999998 Y117.5
G0 X67.4 Y117.60000000000002
G0 X67.5 Y117.60000000000002
G0 X67.6 Y117.69999999999999
G0 X67.69999999999999 Y117.69999999999999
G0 X67.79999999999998 Y117.60000000000002
G0 X67.9 Y117.60000000000002
G0 X68.0 Y117.69999999999999
G0 X68.0 Y117.80000000000001
G0 X67.9 Y117.80000000000001
G0 X67.79999999999998 Y117.80000000000001
G0 X67.69999999999999 Y117.9
G0 X67.6 Y117.9
G0 X67.5 Y117.80000000000001
G0 X67.4 Y117.80000000000001
G0 X67.29999999999998 Y117.69999999999999
G0 X67.19999999999999 Y117.69999999999999
G0 X67.1 Y117.69999999999999
G0 X67.0 Y117.69999999999999
G0 X66.9 Y117.69999999999999
G0 X66.79999999999998 Y117.69999999999999
G0 X66.69999999999999 Y117.60000000000002
G0 X66.6 Y117.60000000000002
G0 X66.5 Y117.60000000000002
G0 X66.4 Y117.5
G0 X66.29999999999998 Y117.60000000000002
G0 X66.19999999999999 Y117.60000000000002
G0 X66.1 Y117.5
G0 X66.0 Y117.5
G0 X65.9 Y117.5
G0 X65.79999999999998 Y117.4
G0 X65.69999999999999 Y117.4
G0 X65.6 Y117.4
G0 Z2
G0 X67.0 Y118.0
G0 Z0
G0 X67.1 Y117.9
G0 X67.19999999999999 Y117.9
G0 X67.29999999999998 Y118.0
G0 X67.19999999999999 Y118.10000000000002
G0 X67.1 Y118.10000000000002
G0 Z2
G0 X67.9 Y117.9
G0 Z0
G0 X68.0 Y118.0
G0 X68.1 Y117.9
G0 X68.19999999999999 Y117.9
G0 X68.29999999999998 Y117.9
G0 X68.4 Y117.9
G0 X68.5 Y118.0
G0 X68.6 Y117.9
G0 X68.69999999999999 Y117.9
G0 X68.79999999999998 Y118.0
G0 X68.79999999999998 Y118.10000000000002
G0 X68.9 Y118.10000000000002
G0 X69.0 Y118.10000000000002
G0 X69.1 Y118.19999999999999
G0 X69.19999999999999 Y118.19999999999999
G0 X69.29999999999998 Y118.10000000000002
G0 X69.4 Y118.19999999999999
G0 X69.29999999999998 Y118.30000000000001
G0 X69.19999999999999 Y118.4
G0 X69.1 Y118.4
G0 X69.0 Y118.30000000000001
G0 X68.9 Y118.30000000000001
G0 X68.79999999999998 Y118.30000000000001
G0 X68.69999999999999 Y118.19999999999999
G0 X68.6 Y118.10000000000002
G0 X68.5 Y118.19999999999999
G0 X68.4 Y118.10000000000002
G0 X68.29999999999998 Y118.10000000000002
G0 X68.19999999999999 Y118.10000000000002
G0 X68.1 Y118.10000000000002
G0 Z2
G0 X69.4 Y118.4
G0 Z0
G0 X69.5 Y118.30000000000001
G0 X69.6 Y118.30000000000001
G0 X69.69999999999999 Y118.30000000000001
G0 X69.79999999999998 Y118.30000000000001
G0 X69.9 Y118.30000000000001
G0 X70.0 Y118.30000000000001
G0 X70.1 Y118.4
G0 X70.19999999999999 Y118.4
G0 X70.29999999999998 Y118.5
G0 X70.4 Y118.5
G0 X70.5 Y118.5
G0 X70.6 Y118.60000000000002
G0 X70.69999999999999 Y118.60000000000002
G0 X70.79999999999998 Y118.60000000000002
G0 X70.9 Y118.60000000000002
G0 X71.0 Y118.60000000000002
G0 X71.1 Y118.69999999999999
G0 X71.19999999999999 Y118.69999999999999
G0 X71.29999999999998 Y118.69999999999999
G0 X71.4 Y118.69999999999999
G0 X71.5 Y118.69999999999999
G0 X71.6 Y118.69999999999999
G0 X71.69999999999999 Y118.69999999999999
G0 X71.79999999999998 Y118.69999999999999
G0 X71.9 Y118.69999999999999
G0 X72.0 Y118.80000000000001
G0 X71.9 Y118.9
G0 X71.79999999999998 Y118.9
G0 X71.69999999999999 Y118.9
G0 X71.6 Y118.9
G0 X71.5 Y118.9
G0 X71.4 Y118.9
G0 X71.29999999999998 Y118.9
G0 X71.19999999999999 Y118.9
G0 X71.1 Y118.9
G0 X71.0 Y118.80000000000001
G0 X70.9 Y118.80000000000001
G0 X70.79999999999998 Y118.80000000000001
G0 X70.69999999999999 Y118.80000000000001
G0 X70.6 Y118.80000000000001
G0 X70.5 Y118.69999999999999
G0 X70.4 Y118.69999999999999
G0 X70.29999999999998 Y118.69999999999999
G0 X70.19999999999999 Y118.69999999999999
G0 X70.1 Y118.60000000000002
G0 X70.0 Y118.5
G0 X69.9 Y118.5
G0 X69.79999999999998 Y118.5
G0 X69.69999999999999 Y118.5
G0 X69.6 Y118.5
G0 X69.5 Y118.5
G0 Z2
G0 X69.0 Y120.0
G0 Z0
G0 X68.9 Y120.0
G0 X68.79999999999998 Y120.0
G0 X68.69999999999999 Y120.0
G0 X68.6 Y119.9
G0 X68.5 Y119.9
G0 X68.4 Y119.80000000000001
G0 X68.29999999999998 Y119.80000000000001
G0 X68.19999999999999 Y119.80000000000001
G0 X68.1 Y119.80000000000001
G0 X68.0 Y119.80000000000001
G0 X67.9 Y119.80000000000001
G0 X67.79999999999998 Y119.80000000000001
G0 X67.69999999999999 Y119.80000000000001
G0 X67.6 Y119.80000000000001
G0 X67.5 Y119.69999999999999
G0 X67.4 Y119.69999999999999
G0 X67.29999999999998 Y119.60000000000002
G0 X67.19999999999999 Y119.5
G0 X67.1 Y119.4
G0 X67.0 Y119.4
G0 X66.9 Y119.4
G0 X66.79999999999998 Y119.4
G0 X66.69999999999999 Y119.4
G0 X66.6 Y119.4
G0 X66.5 Y119.4
G0 X66.4 Y119.4
G0 X66.29999999999998 Y119.4
G0 X66.19999999999999 Y119.4
G0 X66.1 Y119.4
G0 X66.0 Y119.30000000000001
G0 X66.0 Y119.5
G0 X65.9 Y119.5
G0 X65.79999999999998 Y119.4
G0 X65.79999999999998 Y119.60000000000002
G0 X65.69999999999999 Y119.60000000000002
G0 X65.6 Y119.60000000000002
G0 X65.5 Y119.5
G0 X65.4 Y119.4
G0 X65.6 Y119.19999999999999
G0 Z2
G0 X66.1 Y119.60000000000002
G0 Z0
G0 X66.19999999999999 Y119.60000000000002
G0 X66.29999999999998 Y119.60000000000002
G0 X66.4 Y119.60000000000002
G0 X66.5 Y119.60000000000002
G0 X66.6 Y119.60000000000002
G0 X66.69999999999999 Y119.60000000000002
G0 X66.79999999999998 Y119.60000000000002
G0 X66.9 Y119.60000000000002
G0 X67.0 Y119.60000000000002
G0 X67.1 Y119.60000000000002
G0 X67.1 Y119.69999999999999
G0 X67.19999999999999 Y119.80000000000001
G0 X67.29999999999998 Y119.9
G0 X67.4 Y119.9
G0 X67.5 Y119.9
G0 X67.6 Y120.0
G0 X67.69999999999999 Y120.0
G0 X67.79999999999998 Y120.0
G0 X67.9 Y120.0
G0 X68.0 Y120.0
G0 X68.1 Y120.0
G0 X68.19999999999999 Y120.0
G0 X68.29999999999998 Y120.0
G0 X68.4 Y120.0
G0 X68.5 Y120.10000000000002
G0 X68.6 Y120.10000000000002
G0 X68.69999999999999 Y120.19999999999999
G0 X68.79999999999998 Y120.19999999999999
G0 X68.9 Y120.19999999999999
G0 X69.0 Y120.19999999999999
G0 X69.1 Y120.10000000000002
G0 X69.19999999999999 Y120.10000000000002
G0 X69.29999999999998 Y120.10000000000002
G0 X69.4 Y120.19999999999999
G0 X69.5 Y120.19999999999999
G0 X69.6 Y120.19999999999999
G0 X69.69999999999999 Y120.30000000000001
G0 X69.79999999999998 Y120.30000000000001
G0 X69.9 Y120.4
G0 X69.79999999999998 Y120.5
G0 X69.69999999999999 Y120.5
G0 X69.6 Y120.4
G0 X69.5 Y120.4
G0 X69.4 Y120.4
G0 X69.29999999999998 Y120.30000000000001
G0 X69.19999999999999 Y120.30000000000001
G0 X69.1 Y120.30000000000001
G0 Z2
G0 X69.9 Y120.60000000000002
G0 Z0
G0 X70.0 Y120.5
G0 X70.1 Y120.5
G0 X70.19999999999999 Y120.5
G0 X70.29999999999998 Y120.5
G0 X70.4 Y120.5
G0 X70.5 Y120.5
G0 X70.6 Y120.5
G0 X70.69999999999999 Y120.5
G0 X70.79999999999998 Y120.60000000000002
G0 X70.9 Y120.60000000000002
G0 X71.0 Y120.60000000000002
G0 X71.1 Y120.60000000000002
G0 X71.19999999999999 Y120.69999999999999
G0 X71.29999999999998 Y120.69999999999999
G0 X71.4 Y120.80000000000001
G0 X71.5 Y120.80000000000001
G0 X71.6 Y120.9
G0 X71.69999999999999 Y120.9
G0 X71.79999999999998 Y120.9
G0 X71.9 Y120.9
G0 X72.0 Y120.9
G0 X72.1 Y120.9
G0 X72.19999999999999 Y120.9
G0 X72.29999999999998 Y120.9
G0 X72.4 Y120.9
G0 X72.5 Y120.9
G0 X72.6 Y120.9
G0 X72.69999999999999 Y120.9
G0 X72.79999999999998 Y120.9
G0 X72.9 Y120.9
G0 X73.0 Y121.0
G0 X72.9 Y121.10000000000002
G0 X72.79999999999998 Y121.10000000000002
G0 X72.69999999999999 Y121.10000000000002
G0 X72.6 Y121.10000000000002
G0 X72.5 Y121.10000000000002
G0 X72.4 Y121.10000000000002
G0 X72.29999999999998 Y121.10000000000002
G0 X72.19999999999999 Y121.10000000000002
G0 X72.1 Y121.10000000000002
G0 X72.0 Y121.10000000000002
G0 X71.9 Y121.10000000000002
G0 X71.9 Y121.19999999999999
G0 X71.9 Y121.30000000000001
G0 X71.79999999999998 Y121.4
G0 X71.69999999999999 Y121.30000000000001
G0 X71.69999999999999 Y121.19999999999999
G0 X71.69999999999999 Y121.10000000000002
G0 X71.6 Y121.10000000000002
G0 X71.5 Y121.0
G0 X71.4 Y121.0
G0 X71.29999999999998 Y120.9
G0 X71.19999999999999 Y120.9
G0 X71.1 Y120.80000000000001
G0 X71.0 Y120.80000000000001
G0 X70.9 Y120.80000000000001
G0 X70.79999999999998 Y120.80000000000001
G0 X70.69999999999999 Y120.69999999999999
G0 X70.6 Y120.69999999999999
G0 X70.5 Y120.69999999999999
G0 X70.4 Y120.69999999999999
G0 X70.29999999999998 Y120.69999999999999
G0 X70.19999999999999 Y120.69999999999999
G0 X70.1 Y120.69999999999999
G0 X70.0 Y120.69999999999999
G0 Z2
G0 X72.1 Y121.30000000000001
G0 Z0
G0 X72.19999999999999 Y121.19999999999999
G0 X72.29999999999998 Y121.19999999999999
G0 X72.4 Y121.19999999999999
G0 X72.5 Y121.19999999999999
G0 X72.6 Y121.19999999999999
G0 X72.69999999999999 Y121.19999999999999
G0 X72.79999999999998 Y121.19999999999999
G0 X72.9 Y121.19999999999999
G0 X73.0 Y121.19999999999999
G0 X73.1 Y121.30000000000001
G0 X73.19999999999999 Y121.30000000000001
G0 X73.29999999999998 Y121.30000000000001
G0 X73.4 Y121.30000000000001
G0 X73.5 Y121.30000000000001
G0 X73.6 Y121.30000000000001
G0 X73.69999999999999 Y121.30000000000001
G0 X73.79999999999998 Y121.30000000000001
G0 X73.9 Y121.30000000000001
G0 X74.0 Y121.30000000000001
G0 X74.1 Y121.4
G0 X74.0 Y121.5
G0 X73.9 Y121.5
G0 X73.79999999999998 Y121.5
G0 X73.69999999999999 Y121.5
G0 X73.6 Y121.5
G0 X73.5 Y121.5
G0 X73.4 Y121.5
G0 X73.29999999999998 Y121.5
G0 X73.19999999999999 Y121.5
G0 X73.1 Y121.5
G0 X73.0 Y121.4
G0 X72.9 Y121.4
G0 X72.79999999999998 Y121.4
G0 X72.69999999999999 Y121.4
G0 X72.6 Y121.4
G0 X72.5 Y121.4
G0 X72.4 Y121.4
G0 X72.29999999999998 Y121.4
G0 X72.19999999999999 Y121.4
G0 Z2
G0 X74.1 Y121.60000000000002
G0 Z0
G0 X74.19999999999999 Y121.5
G0 X74.29999999999998 Y121.5
G0 X74.4 Y121.60000000000002
G0 X74.5 Y121.60000000000002
G0 X74.6 Y121.60000000000002
G0 X74.69999999999999 Y121.60000000000002
G0 X74.79999999999998 Y121.69999999999999
G0 X74.9 Y121.80000000000001
G0 X75.0 Y121.80000000000001
G0 X75.1 Y121.80000000000001
G0 X75.19999999999999 Y121.80000000000001
G0 X75.29999999999998 Y121.9
G0 X75.19999999999999 Y122.0
G0 X75.1 Y122.0
G0 X75.0 Y122.0
G0 X74.9 Y122.0
G0 X74.79999999999998 Y121.9
G0 X74.69999999999999 Y121.9
G0 X74.6 Y121.80000000000001
G0 X74.5 Y121.80000000000001
G0 X74.4 Y121.80000000000001
G0 X74.29999999999998 Y121.69999999999999
G0 X74.19999999999999 Y121.69999999999999
G0 Z2
G0 X75.29999999999998 Y122.10000000000002
G0 Z0
G0 X75.4 Y122.0
G0 X75.5 Y122.0
G0 X75.6 Y122.0
G0 X75.69999999999999 Y122.0
G0 X75.79999999999998 Y122.0
G0 X75.9 Y122.0
G0 X76.0 Y122.0
G0 X76.1 Y122.0
G0 X76.19999999999999 Y122.0
G0 X76.29999999999998 Y122.0
G0 X76.4 Y122.0
G0 X76.5 Y122.0
G0 X76.6 Y122.10000000000002
G0 X76.5 Y122.19999999999999
G0 X76.4 Y122.19999999999999
G0 X76.29999999999998 Y122.19999999999999
G0 X76.19999999999999 Y122.19999999999999
G0 X76.1 Y122.19999999999999
G0 X76.0 Y122.19999999999999
G0 X75.9 Y122.19999999999999
G0 X75.79999999999998 Y122.19999999999999
G0 X75.69999999999999 Y122.19999999999999
G0 X75.6 Y122.19999999999999
G0 X75.5 Y122.19999999999999
G0 X75.4 Y122.19999999999999
G0 Z2
G0 X75.69999999999999 Y122.69999999999999
G0 Z0
G0 X75.79999999999998 Y122.69999999999999
G0 X75.9 Y122.69999999999999
G0 X76.0 Y122.69999999999999
G0 X76.1 Y122.60000000000002
G0 X76.19999999999999 Y122.60000000000002
G0 X76.29999999999998 Y122.60000000000002
G0 X76.4 Y122.60000000000002
G0 X76.5 Y122.60000000000002
G0 X76.6 Y122.5
G0 X76.69999999999999 Y122.5
G0 X76.79999999999998 Y122.5
G0 X76.9 Y122.5
G0 X77.0 Y122.5
G0 X77.1 Y122.5
G0 X77.19999999999999 Y122.5
G0 X77.29999999999998 Y122.4
G0 X77.4 Y122.4
G0 X77.5 Y122.4
G0 X77.6 Y122.4
G0 X77.69999999999999 Y122.4
G0 X77.79999999999998 Y122.4
G0 X77.9 Y122.4
G0 X78.0 Y122.4
G0 X78.1 Y122.4
G0 X78.19999999999999 Y122.4
G0 X78.29999999999998 Y122.4
G0 X78.4 Y122.4
G0 X78.5 Y122.4
G0 X78.6 Y122.5
G0 X78.69999999999999 Y122.5
G0 X78.79999999999998 Y122.5
G0 X78.9 Y122.5
G0 X79.0 Y122.5
G0 X79.1 Y122.60000000000002
G0 X79.19999999999999 Y122.60000000000002
G0 X79.29999999999998 Y122.60000000000002
G0 X79.4 Y122.60000000000002
G0 X79.5 Y122.60000000000002
G0 X79.6 Y122.60000000000002
G0 X79.69999999999999 Y122.60000000000002
G0 X79.79999999999998 Y122.60000000000002
G0 X79.9 Y122.60000000000002
G0 X80.0 Y122.60000000000002
G0 X80.1 Y122.69999999999999
G0 X80.19999999999999 Y122.69999999999999
G0 X80.29999999999998 Y122.69999999999999
G0 X80.4 Y122.69999999999999
G0 X80.5 Y122.80000000000001
G0 X80.6 Y122.80000000000001
G0 X80.69999999999999 Y122.80000000000001
G0 X80.79999999999998 Y122.80000000000001
G0 X80.9 Y122.80000000000001
G0 X81.0 Y122.80000000000001
G0 X81.1 Y122.80000000000001
G0 X81.19999999999999 Y122.80000000000001
G0 X81.29999999999998 Y122.80000000000001
G0 X81.4 Y122.9
G0 X81.5 Y122.9
G0 X81.6 Y122.9
G0 X81.69999999999999 Y122.9
G0 X81.79999999999998 Y122.9
G0 X81.9 Y123.0
G0 X82.0 Y123.0
G0 X82.1 Y123.0
G0 X82.19999999999999 Y123.0
G0 X82.29999999999998 Y123.10000000000002
G0 X82.4 Y123.10000000000002
G0 X82.5 Y123.10000000000002
G0 X82.6 Y123.10000000000002
G0 X82.69999999999999 Y123.19999999999999
G0 X82.79999999999998 Y123.19999999999999
G0 X82.9 Y123.30000000000001
G0 X83.0 Y123.30000000000001
G0 X83.1 Y123.30000000000001
G0 X83.19999999999999 Y123.30000000000001
G0 X83.29999999999998 Y123.4
G0 X83.4 Y123.4
G0 X83.5 Y123.5
G0 X83.6 Y123.5
G0 X83.69999999999999 Y123.5
G0 X83.79999999999998 Y123.5
G0 X83.9 Y123.5
G0 X84.0 Y123.5
G0 X84.1 Y123.60000000000002
G0 X84.0 Y123.69999999999999
G0 X83.9 Y123.69999999999999
G0 X83.79999999999998 Y123.69999999999999
G0 X83.69999999999999 Y123.69999999999999
G0 X83.6 Y123.69999999999999
G0 X83.5 Y123.69999999999999
G0 X83.5 Y123.80000000000001
G0 X83.4 Y123.80000000000001
G0 X83.29999999999998 Y123.69999999999999
G0 X83.29999999999998 Y123.60000000000002
G0 X83.4 Y123.60000000000002
G0 X83.19999999999999 Y123.5
G0 X83.1 Y123.5
G0 X83.0 Y123.5
G0 X82.9 Y123.5
G0 X82.9 Y123.60000000000002
G0 X82.79999999999998 Y123.60000000000002
G0 X82.69999999999999 Y123.5
G0 X82.69999999999999 Y123.4
G0 X82.79999999999998 Y123.4
G0 X82.6 Y123.30000000000001
G0 X82.5 Y123.30000000000001
G0 X82.4 Y123.30000000000001
G0 X82.29999999999998 Y123.30000000000001
G0 X82.19999999999999 Y123.19999999999999
G0 X82.1 Y123.19999999999999
G0 X82.0 Y123.19999999999999
G0 X81.9 Y123.19999999999999
G0 X81.79999999999998 Y123.10000000000002
G0 X81.69999999999999 Y123.10000000000002
G0 X81.6 Y123.10000000000002
G0 X81.5 Y123.10000000000002
G0 X81.4 Y123.10000000000002
G0 X81.29999999999998 Y123.0
G0 X81.19999999999999 Y123.0
G0 X81.1 Y123.0
G0 X81.0 Y123.0
G0 X80.9 Y123.0
G0 X80.79999999999998 Y123.0
G0 X80.69999999999999 Y123.0
G0 X80.6 Y123.0
G0 X80.5 Y123.0
G0 X80.5 Y123.10000000000002
G0 X80.4 Y123.10000000000002
G0 X80.29999999999998 Y123.10000000000002
G0 X80.19999999999999 Y123.10000000000002
G0 X80.1 Y123.10000000000002
G0 X80.0 Y123.0
G0 X79.9 Y123.0
G0 X79.79999999999998 Y123.0
G0 X79.69999999999999 Y123.0
G0 X79.6 Y123.0
G0 X79.5 Y123.0
G0 X79.4 Y123.0
G0 X79.29999999999998 Y123.0
G0 X79.19999999999999 Y122.9
G0 X79.19999999999999 Y122.80000000000001
G0 X79.1 Y122.80000000000001
G0 X79.0 Y122.80000000000001
G0 X79.0 Y122.69999999999999
G0 X78.9 Y122.69999999999999
G0 X78.79999999999998 Y122.69999999999999
G0 X78.69999999999999 Y122.69999999999999
G0 X78.6 Y122.69999999999999
G0 X78.5 Y122.60000000000002
G0 X78.4 Y122.60000000000002
G0 X78.29999999999998 Y122.60000000000002
G0 X78.19999999999999 Y122.60000000000002
G0 X78.1 Y122.60000000000002
G0 X78.0 Y122.60000000000002
G0 X77.9 Y122.60000000000002
G0 X77.79999999999998 Y122.60000000000002
G0 X77.69999999999999 Y122.60000000000002
G0 X77.6 Y122.60000000000002
G0 X77.5 Y122.60000000000002
G0 X77.4 Y122.60000000000002
G0 X77.29999999999998 Y122.60000000000002
G0 X77.19999999999999 Y122.69999999999999
G0 X77.1 Y122.69999999999999
G0 X77.0 Y122.69999999999999
G0 X76.9 Y122.69999999999999
G0 X76.79999999999998 Y122.69999999999999
G0 X76.69999999999999 Y122.69999999999999
G0 X76.6 Y122.69999999999999
G0 X76.5 Y122.80000000000001
G0 X76.4 Y122.80000000000001
G0 X76.29999999999998 Y122.80000000000001
G0 X76.19999999999999 Y122.80000000000001
G0 X76.1 Y122.80000000000001
G0 X76.0 Y122.9
G0 X75.9 Y122.9
G0 X75.79999999999998 Y122.9
G0 X75.69999999999999 Y122.9
G0 X75.6 Y122.80000000000001
G0 X75.5 Y122.80000000000001
G0 X75.4 Y122.80000000000001
G0 X75.29999999999998 Y122.80000000000001
G0 X75.19999999999999 Y122.80000000000001
G0 X75.1 Y122.9
G0 X75.0 Y122.9
G0 X74.9 Y122.9
G0 X74.79999999999998 Y123.0
G0 X74.69999999999999 Y123.10000000000002
G0 X74.79999999999998 Y123.19999999999999
G0 X74.9 Y123.19999999999999
G0 X74.9 Y123.10000000000002
G0 X75.0 Y123.10000000000002
G0 X75.19999999999999 Y123.10000000000002
G0 X75.29999999999998 Y123.10000000000002
G0 X75.29999999999998 Y123.0
G0 X75.4 Y123.0
G0 X75.5 Y123.0
G0 X75.6 Y123.0
G0 X75.6 Y123.19999999999999
G0 X75.5 Y123.19999999999999
G0 X75.4 Y123.10000000000002
G0 X75.4 Y123.30000000000001
G0 X75.29999999999998 Y123.30000000000001
G0 X75.19999999999999 Y123.30000000000001
G0 X75.1 Y123.30000000000001
G0 X75.0 Y123.30000000000001
G0 Z2
G0 X75.5 Y123.4
G0 Z0
G0 X75.6 Y123.4
G0 X75.69999999999999 Y123.4
G0 X75.79999999999998 Y123.4
G0 X75.9 Y123.4
G0 X76.0 Y123.4
G0 X76.1 Y123.4
G0 X76.19999999999999 Y123.4
G0 X76.29999999999998 Y123.4
G0 X76.4 Y123.4
G0 X76.4 Y123.5
G0 X76.29999999999998 Y123.5
G0 X76.19999999999999 Y123.5
G0 X76.1 Y123.60000000000002
G0 X76.0 Y123.69999999999999
G0 X75.9 Y123.80000000000001
G0 X75.9 Y123.9
G0 X75.9 Y124.0
G0 X75.9 Y124.10000000000002
G0 X75.9 Y124.19999999999999
G0 X75.9 Y124.30000000000001
G0 X75.9 Y124.4
G0 X75.9 Y124.5
G0 X75.9 Y124.60000000000002
G0 X76.0 Y124.69999999999999
G0 X76.1 Y124.80000000000001
